!!!!SEGMENT: pl-wnifc--6819-n_katski-antoni--reveil-du-lion-op-115.krn
!!!cenid: 18xx:4057
!!!COM: Kątski, Antoni
!!!COM-rismID: pe30017994
!!!CDT: 1817-1899
!!!CNT:
!!!OTL: Réveil du Lion op. 115
!!!PDT:
!!!AGN:
!!!SMS-siglum: PL-Wnifc
!!!SMS-shelfmark: 6819/n
!!!SMS-shelfwork: W
!!!SMS-variant:
!!!SMS-altvar:
!!!NIFC-rismSourceID: 1001147530
!!!NIFC-rismChildID: 1001147530
!!!NIFC-islandoraID: nifc:213718
!!!URL-pdf-islandora: https://repozytorium.nifc.pl/islandora/object/nifc%3A213718/datastream/PDF/view
!!!URL-scan: https://polish.musicsources.pl/pl/lokalizacje/galeria/druki-muzyczne/16938-reveil-du-lion/2 @EN{Scan on Polish Music Sources Website} @PL{Skany w portalu Dziedzictwo Muzyki Polskiej w otwartym dostępie}
!!!IIIF:
!!!ONB-nifc:
!!!OMD: Tempo di Marcia.
!!!AIN: 1 piano
!!!key: D-
**kern	**fing	**kern	**fing	**dynam
*part1	*part1	*part1	*part1	*part1
*staff2	*staff2	*staff1	*staff1	*
*>[A,B,B,C,D,D,E]	*	*>[A,B,B,C,D,D,E]	*	*
*>A	*	*>A	*	*
*I"PIANO.	*	*I"PIANO.	*	*
*Ipiano	*	*Ipiano	*	*
*ICklav	*	*ICklav	*	*
*clefF4	*	*clefG2	*	*
*kcancel	*	*kcancel	*	*
*k[b-e-a-d-g-]	*	*k[b-e-a-d-g-]	*	*
*D-:	*	*D-:	*	*
*M4/4	*	*M4/4	*	*
*met(c)	*	*met(c)	*	*
=-	=-	=-	=-	=-
8r	.	16a-/LL	3	f
.	.	16a-/JJ	2	.
=1	=1	=1	=1	=1
*	*	*ped	*	*
1r	.	4a-/	1	.
.	.	8r	.	.
.	.	16a-/LL	3	.
.	.	16a-/JJ	2	.
.	.	4a-/	1	.
.	.	8r	.	.
.	.	16a-/LL	.	.
.	.	16a-/JJ	.	.
=2	=2	=2	=2	=2
1r	.	4a-/	.	.
.	.	8r	.	.
.	.	16a-/LL	.	.
.	.	16a-/JJ	.	.
.	.	4a-/	.	.
*	*	*Xtuplet	*	*
!	!	!LO:TUP:b:problem=klamra łukowa	!	!
.	.	24a-/LL	3	.
.	.	24dd-/	5	.
.	.	24a-/	3	.
!	!	!LO:TUP:b:problem=klamra łukowa	!	!
.	.	24f/	2	.
.	.	24d-/	.	.
.	.	24f/JJ	.	.
=3	=3	=3	=3	=3
1r	.	4a-/	.	.
.	.	8r	.	.
*	*	*clefF4	*	*
.	.	16A-\LL	3	mf
.	.	16A-\JJ	2	.
.	.	4A-\	1	.
.	.	8r	.	.
.	.	16A-\LL	.	.
.	.	16A-\JJ	.	.
=4	=4	=4	=4	=4
1r	.	4A-\	.	.
.	.	8r	.	.
.	.	16A-\LL	.	.
.	.	16A-\JJ	.	.
.	.	4A-\	.	.
!	!	!LO:TUP:a:problem=klamra łukowa	!	!
.	.	24A-\LL	.	.
.	.	24d-\	.	.
.	.	24A-\	.	.
!	!	!LO:TUP:a:problem=klamra łukowa	!	!
.	.	24F\	.	.
.	.	24D-\	.	.
.	.	24F\JJ	.	.
!!LO:LB:g=original
=5	=5	=5	=5	=5
2r	.	4A-\	.	.
.	.	8r	.	.
.	.	16A-\LL	.	p
.	.	16A-\JJ	.	.
4AA- 4AAA-/	.	4A-\	.	.
4r	.	8r	.	.
.	.	16A-\LL	.	.
.	.	16A-\JJ	.	.
=6	=6	=6	=6	=6
4AA- 4AAA-/	.	4A-\	.	.
4r	.	8r	.	.
.	.	16A-\LL	.	>
.	.	16A-\JJ	.	.
4AA- 4AAA-/	.	8A-\L	.	.
.	.	8A-\J	.	.
4AA- 4AAA-/	.	8r	.	.
.	.	8A-\	.	]
=7	=7	=7	=7	=7
1r;	.	1r;	.	.
*	*	*Xped	*	*
=8!|:	=8!|:	=8!|:	=8!|:	=8!|:
*>B	*	*>B	*	*
*	*	*clefG2	*	*
*	*	*ped	*	*
!	!	!	!	!LO:DY:a:t=I fois pp II fois f
4D- 4DD-/	.	8a-L 8f'/	.	pp
*	*	*	*below	*
.	.	16A-/L	3	.
.	.	16A-/JJ	2	.
4r	.	8A-/L	1	.
*	*	*Xped	*	*
.	.	8b-J 8g-'/	.	.
8D-'\L	.	8a- 8f'/	.	.
8A-'\J	.	8r	.	.
8r	.	8gn 8en'/	.	.
8A-\	.	8r	.	.
=9	=9	=9	=9	=9
*	*	*ped	*	*
4D- 4DD-/	.	8a-L 8f'/	.	.
.	.	16A-/L	3	.
.	.	16A-/JJ	2	.
4r	.	8A-/L	1	.
*	*	*Xped	*	*
.	.	8b-J 8g-X'/	.	.
8D-'\L	.	8a- 8f'/	.	.
8A-'\J	.	8r	.	.
8r	.	8ff 8dd- 8a-'\	.	.
8A-\	.	8r	.	.
!!LO:LB:g=original
=10	=10	=10	=10	=10
*	*	*ped	*	*
4AA- 4AAA-/	.	8ffL 8cc 8g-'/	.	.
.	.	16A-/L	3	.
.	.	16A-/JJ	2	.
4r	.	8A-/L	1	.
*	*	*Xped	*	*
.	.	8ee-J 8cc 8g-/	.	.
8AA-'\L	.	8cc 8g- 8e-'/	.	.
8A-'\J	.	8r	.	.
8r	.	8a- 8e- 8c'/	.	.
8A-\	.	8r	.	.
=11	=11	=11	=11	=11
*	*	*ped	*	*
4D- 4DD-/	.	8b-L 8f 8d-'/	.	.
.	.	16A-/L	.	.
.	.	16A-/JJ	.	.
4r	.	8A-/L	.	.
*	*	*Xped	*	*
.	.	8a-J 8f'/	.	.
8D-'\L	.	8f 8d-'/	.	.
8A-'\J	.	8r	.	.
8r	.	8g- 8e-'/	.	.
8A-\	.	8r	.	.
=12	=12	=12	=12	=12
*	*	*ped	*	*
4D- 4DD-/	.	8a-L 8f/	.	.
.	.	16A-/L	.	.
.	.	16A-/JJ	.	.
*	*	*Xped	*	*
4r	.	8A-/L	.	.
.	.	8b-J 8g-/	.	.
8D-\L	.	8a- 8f/	.	.
8A-\J	.	8r	.	.
8r	.	8gn 8en/	.	.
8A-\	.	8r	.	.
=13	=13	=13	=13	=13
*	*	*ped	*	*
4D- 4DD-/	.	8a-L 8f/	.	.
.	.	16A-/L	.	<
.	.	16A-/JJ	.	.
4r	.	8A-/L	.	.
*	*	*Xped	*	*
.	.	8b-J 8g-X/	.	.
8D-\L	.	8a- 8f/	.	.
8A-\J	.	8r	.	.
8r	.	8ff 8dd- 8a-\	.	.
8A-\	.	8r	.	[[
!!LO:LB:g=original
=14	=14	=14	=14	=14
*	*	*ped	*	*
4E- 4EE-/	.	8ee-L 8cc 8a-/	.	.
.	.	16e-/L	.	.
.	.	16e-/JJ	.	.
4r	.	8e-/L	.	.
*	*	*Xped	*	*
.	.	8ccJ 8a-/	.	.
8E-\L	.	8cc 8gn/	.	.
8e-\J	.	8r	.	.
8r	.	8b- 8g/	.	.
8e-\	.	8r	.	.
=15	=15	=15	=15	=15
*	*	*ped	*	*
!	!	!	!	!LO:HP:b=1
8c 8A-\	.	8a-/L	.	<
8r	.	16a-/L	.	.
.	.	16a-/JJ	.	.
8A- 8AA-\	.	8a-/L	.	.
8r	.	16a-/L	.	.
.	.	16a-/JJ	.	.
8A- 8AA-\	.	8a-/L	.	.
8r	.	16a-/L	.	.
.	.	16a-/JJ	.	.
8A- 8AA-\	.	8a-/L	.	.
8r	.	16a-/L	.	.
*	*	*Xped	*	*
.	.	16a-/JJ	.	[[
=16:|!	=16:|!	=16:|!	=16:|!	=16:|!
*>C	*	*>C	*	*
*	*	*ped	*	*
!	!	!	!	!LO:DY:rj:b=1
4AA- 4AAA-/	.	8ffL 8a- 8g-X\	.	p
*	*	*	*Xbelow	*
.	.	16a-\L	3	.
.	.	16a-\JJ	2	.
8c 8A- 8G-\	.	8a-\L	1	.
8r	.	8ee-J 8a- 8g-\	.	.
*	*	*Xped	*	*
8AA-\L	.	8cc 8a- 8g- 8e-/	.	.
8cJ 8A- 8G-\	.	8r	.	.
8r	.	8a- 8g- 8e-/	.	.
8c 8A- 8G-\	.	8r	.	.
=17	=17	=17	=17	=17
*	*	*ped	*	*
4D- 4DD-/	.	8b-L 8f 8d-/	.	.
*	*	*	*below	*
.	.	16a-/L	3	.
.	.	16a-/JJ	2	.
8d- 8A- 8F\	.	8a-/L	1	.
*	*	*Xped	*	*
8r	.	8a-J 8f/	.	.
8D-\L	.	8gn 8en/	.	.
8d-J 8A- 8F\	.	8r	.	.
8r	.	8a- 8f/	.	.
8d- 8A- 8F\	.	8r	.	.
!!LO:LB:g=original
=18	=18	=18	=18	=18
*	*	*ped	*	*
4AA- 4AAA-/	.	8ffL 8a- 8g-X\	.	.
.	.	16a-\L	.	.
.	.	16a-\JJ	.	.
8c 8A- 8G-\	.	8a-\L	.	.
*	*	*Xped	*	*
8r	.	8ffJ 8a- 8g-\	.	.
8AA-\L	.	8cc 8a- 8g- 8e-/	.	.
8cJ 8A- 8G-\	.	8r	.	.
8r	.	8a- 8g- 8e-/	.	.
8c 8A- 8G-\	.	8r	.	.
=19	=19	=19	=19	=19
*	*	*ped	*	*
4D- 4DD-/	.	8b-L 8f 8d-/	.	.
.	.	16a-/L	.	.
.	.	16a-/JJ	.	.
8d- 8A- 8F\	.	8a-/L	.	.
*	*	*Xped	*	*
8r	.	8a-J 8f/	.	.
8D-\L	.	8gn 8en/	.	.
8d-J 8A- 8F\	.	8r	.	.
8r	.	8a- 8f/	.	.
8d- 8A- 8F\	.	8r	.	.
=20	=20	=20	=20	=20
*	*	*ped	*	*
4BB- 4BBB-/	.	8ffL 8a- 8f/	.	.
.	.	16b-/L	3	.
.	.	16b-/JJ	2	.
8dn 8B- 8A-\	.	8b-/L	1	.
*	*	*Xped	*	*
!	!	!	!	!LO:HP:b=1
8r	.	8b-J 8a-/	.	<
8BB-\L	.	8cc-X 8a-/	.	.
8dJ 8B- 8A-\	.	8r	.	.
8r	.	8b- 8a-/	.	.
8d 8B- 8A-\	.	8r	.	[[
=21	=21	=21	=21	=21
*	*	*ped	*	*
8E-L 8EE-\	.	4aa- 4ddn 4cc-X^^\	.	.
8dnJ 8c-X\	.	.	.	.
8E-\L	.	4gg- 4ee- 4b-^^\	.	.
8e-J 8B-\	.	.	.	.
*	*	*Xped	*	*
8F\L	.	4ff 4cc-X 4a-^^\	.	.
8dnJ 8c-X 8A-\	.	.	.	.
8G-\L	.	4ee- 4b- 4g-^^\	.	.
8e-J 8B-\	.	.	.	.
!!LO:LB:g=original
=22	=22	=22	=22	=22
8A-\L	.	4dd- 4a- 4f^^\	.	.
8d-\J	.	.	.	.
8A-\L	.	4ddn 4a- 4f^^\	.	.
8dnJ 8Bn\	.	.	.	.
*	*	*ped	*	*
8AA-\L	.	4ff 4a- 4g-^^\	.	.
8cJ 8A-\	.	.	.	.
8AA-\L	.	4ee- 4a- 4g-^^\	.	.
*	*	*Xped	*	*
8cJ 8A-\	.	.	.	.
=23	=23	=23	=23	=23
*ped	*	*	*	*
8d- 8D-\	.	8dd-L 8a- 8f\	.	.
*	*	*	*Xbelow	*
8r	.	16aa-\L	3	f
.	.	16aa-\JJ	2	.
8a- 8A-\	.	8aa-\L	1	.
8r	.	16aa-\L	3	.
.	.	16aa-\JJ	2	.
8a- 8A-\	.	8aa-\L	1	.
8r	.	16aa-\L	.	.
.	.	16aa-\JJ	.	.
8a- 8A-\	.	8aa-\L	.	.
*Xped	*	*	*	*
8r	.	16aa-\L	.	.
.	.	16aa-\JJ	.	.
=24	=24	=24	=24	=24
*	*	*ped	*	*
8AA-\L	.	8fffL 8ff\	.	.
8cJ 8A- 8G-\	.	16aa-\L	.	.
.	.	16aa-\JJ	.	.
8c 8A- 8G-\	.	8aa-\L	.	.
8r	.	8eee-J 8ee-\	.	.
8AA-\L	.	8ccc 8cc\	.	.
8c 8A- 8G-\	.	8r	.	.
8AA-\	.	8aa- 8a-\	.	.
*	*	*Xped	*	*
8cJ 8A- 8G-\	.	8r	.	.
=25	=25	=25	=25	=25
*	*	*ped	*	*
8D-\L	.	8bb-L 8b-\	.	.
8d-J 8A- 8F\	.	16aa-\L	.	.
.	.	16aa-\JJ	.	.
8d- 8A- 8F\	.	8aa-\L	.	.
8r	.	8aa-J 8a-\	.	.
8D-\L	.	8ggn 8gn\	.	.
8d- 8A- 8F\	.	8r	.	.
8D-\	.	8aa- 8a-\	.	.
*	*	*Xped	*	*
8d-J 8A- 8F\	.	8r	.	.
!!LO:PB:g=original
=26	=26	=26	=26	=26
*	*	*ped	*	*
8AA-\L	.	8fffL 8ff\	.	.
8cJ 8A- 8G-\	.	16aa-\L	.	.
.	.	16aa-\JJ	.	.
8c 8A- 8G-\	.	8aa-\L	.	.
8r	.	8eee-J 8ee-\	.	.
8AA-\L	.	8ccc 8cc\	.	.
8c 8A- 8G-\	.	8r	.	.
8AA-\	.	8aa- 8a-\	.	.
*	*	*Xped	*	*
8cJ 8A- 8G-\	.	8r	.	.
=27	=27	=27	=27	=27
*	*	*ped	*	*
8D-\L	.	8bb-L 8b-\	.	.
8d-J 8A- 8F\	.	16aa-\L	.	.
.	.	16aa-\JJ	.	.
8d- 8A- 8F\	.	8aa-\L	.	.
8r	.	8aa-J 8a-\	.	.
8D-\L	.	8ggn 8gn\	.	.
8d- 8A- 8F\	.	8r	.	.
8C-X\	.	8aa- 8a-\	.	.
*	*	*Xped	*	*
8d-J 8A- 8F\	.	8r	.	.
=28	=28	=28	=28	=28
*	*	*ped	*	*
8D-\L	.	8fffL 8ff\	.	.
8dnJ 8B- 8A-\	.	16bb-\L	.	.
.	.	16bb-\JJ	.	.
8d 8B- 8A-\	.	8bb-\L	.	<
8r	.	8bb-J 8b-\	.	.
8BB-\L	.	8ccc-X 8cc-X\	.	.
8d 8B- 8A-\	.	8r	.	.
8BB-\	.	8bb- 8b-\	.	.
*	*	*Xped	*	*
8dJ 8B- 8A-\	.	8r	.	[
=29	=29	=29	=29	=29
*	*	*ped	*	*
8E-L 8EE-\	.	4aaa- 4ccc-X 4aa-^^\	.	.
8dnJ 8c-X 8A-\	.	.	.	.
8E-\L	.	4ggg- 4bb- 4gg-^^\	.	.
*	*	*Xped	*	*
8e-J 8B- 8G-\	.	.	.	.
8F\L	.	4fff 4aa- 4ff^^\	.	.
8dnJ 8c-X 8A-\	.	.	.	.
8G-\L	.	4eee- 4gg- 4ee-^^\	.	.
8e-J 8B-\	.	.	.	.
!!LO:LB:g=original
=30	=30	=30	=30	=30
*	*	*ped	*	*
8A-L 8AA-\	.	4ddd- 4ff 4dd-^^\	.	.
8fJ 8d-\	.	.	.	.
8A-\L	.	4dddn 4ff 4ddn^^\	.	.
*	*	*Xped	*	*
8fJ 8dn 8Bn\	.	.	.	.
*	*	*ped	*	*
8A-\L	.	4fff 4aa- 4ff^^\	.	.
8g-J 8c\	.	.	.	.
8AA-\L	.	4eee- 4gg- 4ee-^^\	.	.
*	*	*Xped	*	*
8cJ 8A- 8G-\	.	.	.	.
=31	=31	=31	=31	=31
*	*	*ped	*	*
4d- 4A- 4F 4D-\	.	8ddd-L 8ff 8dd-\	.	.
!	!	!	!	!LO:DY:b
.	.	16dd-\L	.	p
.	.	16dd-\JJ	.	.
4r	.	8dd-\L	.	.
.	.	16dd-\L	.	.
.	.	16dd-\JJ	.	.
4r	.	[2dd-^^\	.	.
*clefG2	*	*Xped	*	*
(4b- (4g-/	3 1	.	.	.
=32	=32	=32	=32	=32
8a- 8f 8d-'/))	2	8dd-/L]	.	.
8r	.	16d-/L	.	.
.	.	16d-/JJ	.	.
4r	.	8d-/L	.	.
.	.	16d-/L	.	.
.	.	16d-/JJ	.	.
4r	.	[2d-^^/	.	.
*clefF4	*	*	*	*
(4B-- 4G-\	.	.	.	.
=33	=33	=33	=33	=33
*	*	*ped	*	*
8A- 8F 8D-'\)	.	8d-/L]	.	.
8r	.	16dd-/L	.	.
.	.	16dd-/JJ	.	.
4r	.	8dd-\L	.	.
.	.	16dd-\L	.	.
.	.	16dd-\JJ	.	.
*	*	*Xped	*	*
4r	.	[2dd-^^\	.	.
*clefG2	*	*	*	*
(4b-- 4f-X 4B--/	.	.	.	.
!!LO:LB:g=original
=34	=34	=34	=34	=34
!	!	!LO:TX:t=P:problem=koniec ligatury na dole	!	!
8a- 8fn 8d-'/)	.	8dd-/L]	.	.
8r	.	16d-/L	.	.
.	.	16d-/JJ	.	.
4r	.	8d-/L	.	.
.	.	16d-/L	.	.
.	.	16d-/JJ	.	.
4r	.	[2d-^^/	.	.
*clefF4	*	*	*	*
(4Gn 4F-X (<4BB-\	.	.	.	.
=35	=35	=35	=35	=35
*^	*	*	*	*
*	*^	*	*	*	*
4G-X/	4BB--\	2E-/	.	4.d-/]	.	.
4A-/)	4AA-\)	.	.	.	.	.
.	.	.	.	8c/	.	.
2r;	2ryy	2ryy	.	4a-/	.	.
.	.	.	.	4r;	.	.
*v	*v	*v	*	*	*	*
=36	=36	=36	=36	=36
*	*	*ped	*	*
!	!	!	!	!LO:DY:rj:b=1
4A- 4AA-\	.	4ddn 4bn 4a-X 4f/	.	pp
8r	.	8r	.	.
*clefG2	*	*	*	*
8a-'/	.	16r	.	.
.	.	(16aa-\	.	.
*	*	*Xped	*	*
2r	.	4aaa-\)	.	.
.	.	4r	.	.
*clefF4	*	*	*	*
=37	=37	=37	=37	=37
*	*	*ped	*	*
4A- 4AA-\	.	4ee- 4cc 4a- 4g-\	.	.
8r	.	8r	.	.
*clefG2	*	*	*	*
8a-'/	.	16r	.	.
.	.	(16aa-\	.	.
2r	.	4aaa-\)	.	.
*	*	*Xped	*	*
.	.	4r	.	.
*clefF4	*	*	*	*
=38	=38	=38	=38	=38
*	*	*ped	*	*
4A- 4AA-\	.	4een 4cc 4a- 4g-X\	.	.
8r	.	8r	.	.
*clefG2	*	*	*	*
8a-'/	.	16r	.	.
.	.	(16aa-\	.	.
2r;	.	4aaa-\)	.	.
*	*	*Xped	*	*
.	.	4r;	.	.
*clefF4	*	*	*	*
!!LO:LB:g=original
=39|!	=39|!	=39|!	=39|!	=39|!
!!!OMD: Andante espressivo.
*M6/8	*	*M6/8	*	*
*	*	*ped	*	*
!	!	!	!	!LO:DY:b
(16D-LL 16DD-\	.	2.r	.	p
16A-\J	.	.	.	.
16d-\L	.	.	.	.
16f\J	.	.	.	.
16B-\L	.	.	.	.
16A-\JJ)	.	.	.	.
(16D-\LL	.	.	.	.
16A-\J	.	.	.	.
16d-\L	.	.	.	.
16f\J	.	.	.	.
16d-\L	.	.	.	.
16A-\JJ)	.	.	.	.
=40	=40	=40	=40	=40
(16D-\LL	.	4.aa-: 4.ff: 4.dd-: 4.a-:\	5-3	.
16A-\	.	.	.	.
16d-\	.	.	.	.
16f\	.	.	.	.
16d-\	.	.	.	.
16A-\JJ)	.	.	.	.
(16D-\LL	.	(16bb-\LL	.	.
16A-\	.	16aa-\	.	.
16d-\	.	16cc\	.	.
16f\	.	16dd-\	.	.
16d-\	.	16gg-\	.	.
*	*	*Xped	*	*
16A-\JJ)	.	16ff\JJ)	.	.
=41	=41	=41	=41	=41
*	*	*ped	*	*
(16AA-\LL	.	(8.ee-\L	.	.
16A-\	.	.	.	.
16c\	.	.	.	.
16g-\	.	32ddn\LL	.	.
.	.	32ee-\JJ	.	.
16c\	.	32ff\LL	.	.
.	.	32ee-\	.	.
16A-\JJ)	.	32gg-\	.	.
.	.	32ff\JJJ	.	.
(16AA-\LL	.	4ee-\	.	.
16A-\	.	.	.	.
16c\	.	.	.	.
16g-\	.	.	.	.
16c\	.	8een\)	.	.
*	*	*Xped	*	*
16A-\JJ)	.	.	.	.
!!LO:LB:g=original
=42	=42	=42	=42	=42
*	*	*ped	*	*
(16D-\LL	.	(8ff\L	.	.
16A-\	.	.	.	.
16d-\	.	8cc\	.	.
16f\	.	.	.	.
16d-\	.	8dd-\J)	.	.
16A-\JJ)	.	.	.	.
(16D-\LL	.	(32fff\LLL	.	.
.	.	32ccc\	.	.
16A-\	.	32eee-\	.	.
.	.	32ddd-\JJ	.	.
16d-\	.	32aa-\LL	.	.
.	.	32ggn\	.	.
16f\	.	32bb-\	4	.
.	.	32aa-\JJ	.	.
16d-\	.	32ff\LL	.	.
.	.	32een\	.	.
16A-\JJ)	.	32gg-X\	4	.
*	*	*Xped	*	*
.	.	32ff\JJJ)	.	.
=43	=43	=43	=43	=43
*^	*	*	*	*
*	*	*	*ped	*	*
(16EE-\LL	4ryy	.	(32ee-X\LLL	2	.
.	.	.	32aa-\	.	.
16E-\	.	.	32ccc\	1	.
.	.	.	32eee-\JJ	.	.
*	*	*	*8va	*	*
16A-\	.	.	32cccc\LL	.	.
.	.	.	32aaa-M\	.	.
16c\	.	.	32gggn\	.	.
*	*	*	*Xped	*	*
.	.	.	32fff\JJ	.	.
*	*	*	*X8va	*	*
16E-\	8E-/	.	32eee-\LL	.	.
.	.	.	32dddn\	.	.
16d-JJ 16Gn\)	.	.	32ddd-X\	.	.
.	.	.	32bb-\JJJ)	.	.
.	.	.	16qqggn/LL	.	.
.	.	.	16qqbb-/JJ	.	.
*	*	*	*ped	*	*
!	!	!	!LO:TX:b:i:t=poco ritard a tempo.	!	!
(16AA-\LL	4.ryy	.	4aa-T\	.	.
16E-\	.	.	.	.	.
16A-\	.	.	.	.	.
16c\	.	.	.	.	.
.	.	.	16qqgg/LL	.	.
.	.	.	16qqaa-/	.	.
.	.	.	16qqccc/JJ	.	.
16G-X\	.	.	16.bb-\LL	.	.
16e-\JJ)	.	.	.	.	.
*	*	*	*Xped	*	*
.	.	.	32aa-\JJk	.	.
*v	*v	*	*	*	*
=44	=44	=44	=44	=44
*	*	*ped	*	*
(16D-LL 16DD-\	.	4aa-: 4ff: 4dd-: 4a-:\	5-2	.
16A-\	.	.	.	.
16d-\	.	.	.	.
16f\	.	.	.	.
16d-\	.	8ryy	.	.
16A-\JJ)	.	.	.	.
(16D-\LL	.	(32ggn\LLL	.	.
.	.	32aa-\	.	.
16A-\	.	32fff\	.	.
.	.	32aa-\JJ	.	.
16d-\	.	32een\LL	.	.
.	.	32ff\	.	.
16f\	.	32ddd-\	.	.
.	.	32ff\JJ	.	.
16d-\	.	32cc\LL	.	.
.	.	32dd-\	.	.
16A-\JJ)	.	32gg-X\	4	.
*	*	*Xped	*	*
.	.	32ff\JJJ)	.	.
!!LO:LB:g=original
=45	=45	=45	=45	=45
*	*	*ped	*	*
(16AA-\LL	.	(8.ee-X\L	.	.
16A-\	.	.	.	.
16c\	.	.	.	.
16g-\	.	32ddn\LL	.	.
.	.	32ee-\JJ	.	.
16c\	.	32ff\LL	.	.
.	.	32ee-\	.	.
16A-\JJ)	.	32gg-\	.	.
.	.	32ff\JJJ	.	.
(16AA-\LL	.	4ee-\	.	.
16A-\	.	.	.	.
16c\	.	.	.	.
16g-\	.	.	.	.
16c\	.	8een\)	3	.
*	*	*Xped	*	*
16A-\JJ)	.	.	.	.
=46	=46	=46	=46	=46
*	*	*ped	*	*
(16D-\LL	.	(8ff\L	1	.
16A-\	.	.	.	.
16d-\	.	8aa-\	.	.
16f\	.	.	.	.
16d-\	.	8ddd-\J)	.	.
*	*	*Xped	*	*
16A-\JJ)	.	.	.	.
*	*	*ped	*	*
(16AA-\LL	.	(32ccc\LLL	1	.
*	*	*8va	*	*
.	.	32bbb-\	5	.
16A-\	.	32aaa-\	4	.
.	.	32ggg-\JJ	3	.
*	*	*X8va	*	*
16c\	.	32eee-\LL	.	.
.	.	32ccc\	1	.
16g-\	.	32aa-\	3	.
.	.	32aa--\JJ	1	.
16c\	.	32gg-\LL	4	.
.	.	32cc\	.	.
16A-\JJ)	.	32ff\	.	.
.	.	32ee-\JJJ)	.	.
=47	=47	=47	=47	=47
(16AA-\LL	.	(16ee-:LL 16cc: 16a-: 16g-':\	.	.
16A-\	.	16aa-'\	.	.
16c\	.	16aan'\	.	.
16g-\	.	16bb-'\	.	.
16c\	.	16bbn'\	.	.
*	*	*Xped	*	*
16A-\JJ)	.	16ccc'\JJ)	.	.
*	*	*ped	*	*
(16D-\LL	.	8ddd-: 8ff: 8dd-':\	.	.
16A-\	.	.	.	.
16d-\	.	8r	.	.
16f\	.	.	.	.
16d-\	.	8ff\	.	.
*	*	*Xped	*	*
16A-\JJ)	.	.	.	.
!!LO:PB:g=original
=48	=48	=48	=48	=48
*	*	*ped	*	*
!	!	!	!	!LO:DY:rj:b=1
(16AA-\LL	.	4.aa-: 4.ee-: 4.cc: 4.a-:\	.	f
16E-\	.	.	.	.
16A-\	.	.	.	.
16c\	.	.	.	.
16A-\	.	.	.	.
*	*	*Xped	*	*
16E-\JJ)	.	.	.	.
*	*	*ped	*	*
(16EE-\LL	.	8ggn\L	3	.
16E-\	.	.	.	.
.	.	(16qqaa-/LL	.	.
.	.	16qqgg/JJ	.	.
16Gn\	.	8ff\)	.	.
16d-\	.	.	.	.
16G\	.	8ee-\J	.	.
*	*	*Xped	*	*
16E-\JJ)	.	.	.	.
=49	=49	=49	=49	=49
*	*	*ped	*	*
(16AA-\LL	.	16ee-:LL 16cc:\	.	.
*	*	*8va	*	*
16E-\	.	(16cccc'\	.	.
16A-\	.	16bbb-'\	.	.
16c\	.	16aaa-'\	.	.
16A-\	.	16gggn'\	.	.
16E-\JJ)	.	16fff'\JJ)	.	.
(16AA-\LL	.	16eee-\LL	.	.
*	*	*X8va	*	*
!	!	!LO:TX:a:t=loco.	!	!
16E-\	.	(16ccc'\	.	pp
16A-\	.	16bb-'\	.	.
16c\	.	16aa-'\	.	.
16A-\	.	16ggn'\	.	.
*	*	*Xped	*	*
16E-\JJ)	.	16ff'\JJ)	.	.
=50	=50	=50	=50	=50
*	*	*ped	*	*
!	!	!	!	!LO:DY:b
16EE-'\LL	.	4aa-: 4ee-: 4cc: 4a-:\	5-3	fp
(16E-\	.	.	.	.
16A-\	.	.	.	.
16c\	.	.	.	.
16A-\	.	(16bb-\LL	.	.
*	*	*Xped	*	*
16E-\JJ)	.	16aa-\JJ)	.	.
*	*	*ped	*	*
(16EE-\LL	.	(32ff#X\LLL	.	.
.	.	32gg-\	.	.
16E-\	.	32fffn\	.	.
.	.	32eee-\JJ	.	.
16Gn\	.	32ccc\LL	.	>
.	.	32ddd-\	.	.
16d-\	.	32aan\	.	.
.	.	32bb-\JJ	.	.
16G\	.	48ffn\LL	.	.
.	.	48ff#X\	.	.
.	.	48gg-\JJ	.	.
16E-\JJ)	.	32.ccc\LL	.	.
*	*	*Xped	*	*
.	.	64bb-\JJJk)	.	]]
!!LO:LB:g=original
=51	=51	=51	=51	=51
*	*	*ped	*	*
.	.	8qggn/	.	.
(16AA-\LL	.	[4.aa-TT\	.	<
16A-\	.	.	.	.
16c\	.	.	.	.
16A-\	.	.	.	.
16d- 16B-\	.	.	.	.
16A-\JJ	.	.	.	.
16e-LL 16c\	.	4aa-\]	.	.
16A-\	.	.	.	.
16f 16d-\	.	.	.	[
16A-\	.	.	.	.
!	!	!LO:TX:b:i:t=ritard a tempo.	!	!
.	.	16qqggn/LL	.	.
.	.	16qqaa-/	.	.
.	.	16qqccc/JJ	.	.
16g-X 16e-\	.	16.bb-\LL	.	.
16A-\JJ)	.	.	.	.
*	*	*Xped	*	*
.	.	32aa-\JJk	.	.
=52	=52	=52	=52	=52
*	*	*ped	*	*
(16D-LL 16DD-\	.	(4.aa-: 4.ff: 4.dd-: 4.a-:\	.	.
16A-\	.	.	.	.
16d-\	.	.	.	.
16f\	.	.	.	.
*	*	*Xped	*	*
16d-\	.	.	.	.
16A-\JJ)	.	.	.	.
*	*	*ped	*	*
(16B-LL 16BB-\	.	16ccc-X:LL 16ff: 16ddn:\	.	<
16B-\	.	16bb-\	.	.
16dn\	.	16aan\	.	.
16a-\	.	16bb-\	.	.
16d\	.	16ccc-\	.	.
16B-\JJ)	.	16bb-\JJ)	.	[[
*	*	*Xped	*	*
=53	=53	=53	=53	=53
.	.	8qbb-/	.	.
*	*	*ped	*	*
(16G-LL 16GG-\	.	(16aaa-\LL	.	.
16B-\	.	16ggg-\	.	.
16e-\	.	16fff\	.	.
16g-\	.	16eee-\	.	.
16e-\	.	16dddn\	.	.
*	*	*Xped	*	*
16B-\JJ)	.	16eee-\JJ	.	.
*	*	*ped	*	*
(16GnLL 16GGn\	.	16fff-X\LL	.	.
16G\	.	16eee-\	.	.
16B-\	.	16ddd-XM\	.	.
16f-X\	.	16ccc\	.	.
16B-\	.	16ddd-\	.	.
*	*	*Xped	*	*
16G\JJ)	.	16bb-\JJ)	.	.
=54	=54	=54	=54	=54
*	*	*ped	*	*
*	*	*8va	*	*
(16A-LL 16AA-\	.	(16bbb-:LL 16fff: 16ddd-:\	.	>
16A-\	.	16aaa-'\)	.	.
16d-\	.	(16ggg-M\	.	.
16f\	.	16fff'\)	.	.
16d-\	.	(16eee-\	.	.
*	*	*Xped	*	*
16A-\JJ)	.	16ddd-'\JJ)	.	.
*	*	*X8va	*	*
*	*	*ped	*	*
(16A-LL 16AA-\	.	(16ccc\LL	.	.
16A-\	.	16bb-'\)	.	.
16c\	.	(16aa-M\	.	.
16g-\	.	16gg-'\)	.	.
16c\	.	(16b-\	.	.
*	*	*Xped	*	*
16A-\JJ)	.	16cc'\JJ)	.	]
!!LO:LB:g=original
=55	=55	=55	=55	=55
*	*	*ped	*	*
!	!	!	!	!LO:DY:rj
(16D-LL 16DD-\	.	(8dd-\L	.	p
16A-\	.	.	.	.
16d-\	.	8ff\	.	.
16f\	.	.	.	.
16d-\	.	8bb-\J)	.	.
*	*	*Xped	*	*
16A-\JJ)	.	.	.	.
*	*	*ped	*	*
(16D-\LL	.	(16aa-\LL	.	.
16A-\	.	16ccc\	1	.
16c\	.	16eee-\)	2	.
*	*	*8va	*	*
16g-\	.	16aaa- 16ccc\	.	.
16c\	.	16aaa- 16ccc\	.	.
*	*	*Xped	*	*
16A-\JJ)	.	16aaa-JJ 16ccc\	.	.
=56	=56	=56	=56	=56
*	*	*ped	*	*
.	.	8qddd-/	.	.
(16D-\LL	.	(32bbb-\LLL	.	.
.	.	32aaa-\	.	.
16A-\	.	32ggg-\	.	.
.	.	32fff\JJ	.	.
16d-\	.	32ggg-\LL	.	.
.	.	32fff\	1	.
16f\	.	32eee-\	3	.
.	.	32ddd-\JJ	.	.
16d-\	.	32eee-\LL	.	.
.	.	32ddd-\	.	.
16A-\JJ)	.	32ccc\	1	.
*	*	*Xped	*	*
.	.	32bb-\JJJ	3	.
*	*	*X8va	*	*
*	*	*ped	*	*
(16D-\LL	.	32ccc\LLL	5	.
.	.	32bb-\	.	.
16A-\	.	32aa-\	.	.
.	.	32gg-\JJ	.	.
16c\	.	32aa-\LL	.	.
.	.	32gg-\	.	.
16g-\	.	32ff\	.	.
.	.	32aa-\JJ	.	.
16c\	.	32gg-\LL	.	.
.	.	32cc\	.	.
16A-\JJ)	.	32ff\	4	.
*	*	*Xped	*	*
.	.	32ee-\JJJ)	.	.
=57	=57	=57	=57	=57
*	*	*ped	*	*
(16D-LL 16DD-\	.	(16dd-\LL	.	.
16A-\	.	16ff\	.	.
16d-\	.	16aa-\	.	.
16f\	.	16ddd-\	5	.
16d-\	.	16ccc\	.	.
*	*	*Xped	*	*
16A-\JJ)	.	16bb-\JJ)	.	.
*	*	*ped	*	*
(16D-\LL	.	(16aa-\LL	.	.
16A-\	.	16ccc\	1	.
16c\	.	16eee-\)	2	.
*	*	*8va	*	*
16g-\	.	16cccc 16ccc\	.	.
16c\	.	16cccc 16ccc\	.	.
*	*	*Xped	*	*
16A-\JJ)	.	16ccccJJ 16ccc\	.	.
!!LO:LB:g=original
=58	=58	=58	=58	=58
*	*	*ped	*	*
(16D-\LL	.	(32bbb-:LLL 32fff: 32ddd-:\	.	.
.	.	32aaa-\	.	.
16A-\	.	32dddd-\	.	.
.	.	32fff\JJ	.	.
16d-\	.	32ggg-\LL	.	.
.	.	32fff\	.	.
16f\	.	32aaa-\	.	.
.	.	32ddd-\JJ	.	.
16d-\	.	32eee-\LL	.	.
.	.	32ddd-\	.	.
16A-\JJ)	.	32fff\	.	.
*	*	*Xped	*	*
.	.	32ddd-\JJJ	.	.
*	*	*X8va	*	*
*	*	*ped	*	*
(16D-\LL	.	32fff-X\LLL	.	.
.	.	32bb-\	.	.
16B-\	.	32ddd-\	.	.
.	.	32ggn\JJ	.	.
16d-\	.	32bb-\LL	.	.
.	.	32ff-X\	.	.
16f-X\	.	32ggn\	5	.
.	.	32dd-\JJ	.	.
16A-\	.	32gg-X\LL	.	.
.	.	32cc\	.	.
16g-JJ 16c\)	.	32ee-\	4	.
.	.	32a-\JJJ)	2	.
*	*	*Xped	*	*
=59	=59	=59	=59	=59
*	*	*ped	*	*
(16D-\LL	.	8dd-\	.	.
16A-\	.	.	.	.
16d-\	.	8r	.	.
16f\	.	.	.	.
.	.	[8qdd-/	.	.
16d-\	.	8ddd- 8dd-\]	.	.
*	*	*Xped	*	*
16A-\JJ)	.	.	.	.
*	*	*ped	*	*
(16D-\LL	.	4.ddd-: 4.bb-: 4.gg-: 4.dd-:\	.	fp
16B-\	.	.	.	.
16d-\	.	.	.	.
16g-\	.	.	.	.
16d-\	.	.	.	.
*	*	*Xped	*	*
16B-\JJ)	.	.	.	.
=60	=60	=60	=60	=60
*	*	*ped	*	*
(16D-\LL	.	4ddd-: 4aa-: 4ff: 4dd-:\	.	fp
16A-\	.	.	.	.
16d-\	.	.	.	.
16f\	.	.	.	.
16d-\	.	8ddd- 8dd-\	.	.
*	*	*Xped	*	*
16A-\JJ)	.	.	.	.
*	*	*ped	*	*
!	!	!	!	!LO:HP:b=1:t=crescendo.
(16B-LL 16BB-\	.	8ddd-:L 8ff: 8dd-:\	.	<
16B-\	.	.	.	.
16d-\	.	8ccc 8cc\	.	.
16f\	.	.	.	.
16d-\	.	8bb-J 8b-\	.	.
*	*	*Xped	*	*
16B-\JJ)	.	.	.	.
!!LO:LB:g=original
=61	=61	=61	=61	=61
*	*	*ped	*	*
(16FLL 16FF\	.	4ccc: 4aan: 4ff: 4cc:\	.	.
16An\	.	.	.	.
16c\	.	.	.	.
16f\	.	.	.	.
16c\	.	8fff 8ff\	.	.
*	*	*Xped	*	*
16A\JJ)	.	.	.	.
*	*	*ped	*	*
(16A-XLL 16AA-X\	.	8ggg-:L 8ccc: 8gg-:\	.	.
16A-\	.	.	.	.
16c\	.	8fff 8ff\	.	.
16g-\	.	.	.	.
16c\	.	8eee-J 8ee-\	.	.
*	*	*Xped	*	*
16A-\JJ)	.	.	.	.
=62	=62	=62	=62	=62
*	*	*ped	*	*
(16D-LL 16DD-\	.	4.fff 4.ddd- 4.ff\	.	.
16A-\	.	.	.	.
16d-\	.	.	.	.
16f\	.	.	.	.
16d-\	.	.	.	.
*	*	*Xped	*	*
16A-\JJ)	.	.	.	.
*	*	*ped	*	*
*	*	*8va	*	*
!	!	!	!	!LO:DY:rj:b=1
(16B--LL 16BB--\	.	(8fff-XL 8ddd- 8bb--\	.	f
16B--\	.	.	.	.
16d-\	.	8bbb--\	.	.
16f-X\	.	.	.	.
16d-\	.	16ddd-\L	.	.
*	*	*Xped	*	*
16B--\JJ)	.	16eee-\JJ	.	.
=63	=63	=63	=63	=63
*	*	*ped	*	*
(16D-\LL	.	4.fff 4.ddd- 4.aa-\)	.	.
16A-\	.	.	.	.
16d-\	.	.	.	.
16f\	.	.	.	.
16d-\	.	.	.	.
*	*	*Xped	*	*
16A-\JJ)	.	.	.	.
*	*	*X8va	*	*
*	*	*ped	*	*
!	!	!	!	!LO:DY:rj
(16BB--\LL	.	(8ff-XL 8dd- 8b--\	.	pp
16B--\	.	.	.	.
16d-\	.	8bb--\	.	.
16f-X\	.	.	.	.
16d-\	.	16dd-\L	.	.
*	*	*Xped	*	*
16B--\JJ)	.	16ee-\JJ	.	.
=64	=64	=64	=64	=64
*	*	*ped	*	*
(16D-\LL	.	4.ff 4.dd- 4.a-\)	.	.
16A-\	.	.	.	.
16d-\	.	.	.	.
16f\	.	.	.	.
16d-\	.	.	.	.
16A-\JJ)	.	.	.	.
(16D-\LL	.	4.ff: 4.dd-: 4.a-:\	.	.
16A-\	.	.	.	.
16d-\	.	.	.	.
16f\	.	.	.	.
16d-\	.	.	.	.
16A-\JJ)	.	.	.	.
!!LO:LB:g=original
=65	=65	=65	=65	=65
(16D-\LL	.	4.aa-: 4.ff: 4.dd-: 4.a-:\	.	<
16A-\	.	.	.	.
16d- 16F\	.	.	.	.
16f\	.	.	.	.
16d-\	.	.	.	.
16A-\JJ)	.	.	.	.
(16D-\LL	.	4.ddd-: 4.aa-: 4.ff: 4.dd-:\	.	.
16A-\	.	.	.	.
16d-\	.	.	.	.
16f\	.	.	.	.
16d-\	.	.	.	.
16A-\JJ)	.	.	.	[[
=66	=66	=66	=66	=66
(16D-\LL	.	2.ddd-: 2.aa-: 2.ff: 2.dd-:\	.	>]
16A-\	.	.	.	.
16d-\	.	.	.	.
16f\	.	.	.	.
16d-\	.	.	.	.
16A-\JJ)	.	.	.	.
(16D-\LL	.	.	.	.
16A-\	.	.	.	.
16d-\	.	.	.	.
16f\	.	.	.	.
16d-\	.	.	.	.
16A-\JJ)	.	.	.	.
=67	=67	=67	=67	=67
.	.	16qqccc/LL	.	.
.	.	16qqddd-/JJ	.	.
(16D-\LL	.	2.ddd-T\	.	.
16A-\	.	.	.	.
16d-\	.	.	.	.
16f\	.	.	.	.
*clefG2	*	*	*	*
16a-\	.	.	.	.
16dd-\JJ	.	.	.	.
16ff\LL	.	.	.	.
16dd-\	.	.	.	.
16a-\	.	.	.	.
16f\	.	.	.	.
16d-\	.	.	.	.
16A-\JJ)	.	.	.	.
.	.	16qqccc/LL	.	.
.	.	16qqddd-/	.	.
.	.	16qqeee-/JJ	.	.
*clefF4	*	*	*	*
=68	=68	=68	=68	=68
8f: 8d-: 8A-: 8D-:\	.	8ddd-\	.	.
8r	.	8r	.	.
8r	.	8r	.	pp
8d- 8A- 8D-\	.	8ff 8dd- 8a-\	.	.
8r	.	8r	.	.
8r	.	8r	.	.
=69	=69	=69	=69	=69
4.D- 4.DD-/	.	4.d-/	.	.
4r	.	4r	.	.
*	*	*Xped	*	*
8r	.	8r	.	.
!!LO:PB:g=original
=70|!	=70|!	=70|!	=70|!	=70|!
!!!OMD: Allegro di Marcia.
*M4/4	*	*M4/4	*	*
*met(c)	*	*met(c)	*	*
!	!	!LO:TX:a:i:t=LE RAPPEL.	!	!LO:DY:rj
.	.	8qGn/	.	pp
8AA-L 8AAA-/	.	8A-/L	.	<
.	.	8qG/	.	.
8AA-J 8AAA-/	.	8A-/J	.	.
.	.	8qG/	.	.
4AA- 4AAA-/	.	4A-/	.	.
.	.	8qG/	.	.
8AA-L 8AAA-/	.	8A-/L	.	.
.	.	8qG/	.	.
8AA-J 8AAA-/	.	8A-/J	.	.
.	.	8qG/	.	.
4AA- 4AAA-/	.	4A-/	.	[
=71	=71	=71	=71	=71
.	.	8qGn/	.	>
8AA-L 8AAA-/	.	8A-/L	.	.
.	.	8qG/	.	.
8AA-J 8AAA-/	.	8A-/J	.	.
.	.	8qG/	.	.
4AA- 4AAA-/	.	4A-/	.	.
.	.	8qG/	.	.
8AA-L 8AAA-/	.	8A-/L	.	.
.	.	8qG/	.	.
8AA-J 8AAA-/	.	8A-/J	.	.
.	.	8qG/	.	.
4AA- 4AAA-/	.	4A-/	.	]
=72	=72	=72	=72	=72
*	*	*ped	*	*
*	*	*tuplet	*	*
!	!	!LO:TUP:b:problem=klamra łukowa	!	!LO:DY:rj
4AA- 4AAA-/	.	24b--LL 24g-X 24e-/	.	p
.	.	24d-/	.	<
.	.	24b-- 24g- 24e-/	.	.
.	.	24d-/	.	.
.	.	24b-- 24g- 24e-/	.	.
.	.	24d-/JJ	.	.
*	*	*Xtuplet	*	*
!	!	!LO:TUP:b:problem=klamra łukowa	!	!
4AA- 4AAA-/	.	24b--LL 24g- 24e-/	.	.
.	.	24d-/	.	.
.	.	24b-- 24g- 24e-/	.	.
.	.	24d-/	.	.
.	.	24b-- 24g- 24e-/	.	.
.	.	24d-/JJ	.	.
!	!	!LO:TUP:b:problem=klamra łukowa	!	!
4AA- 4AAA-/	.	24b--LL 24g- 24e-/	.	.
.	.	24d-/	.	.
.	.	24b-- 24g- 24e-/	.	.
.	.	24d-/	.	.
.	.	24b-- 24g- 24e-/	.	.
.	.	24d-/JJ	.	.
!	!	!LO:TUP:b:problem=klamra łukowa	!	!
4AA- 4AAA-/	.	24b--LL 24g- 24e-/	.	.
.	.	24d-/	.	.
.	.	24b-- 24g- 24e-/	.	.
.	.	24d-/	.	.
.	.	24b-- 24g- 24e-/	.	[
*	*	*Xped	*	*
.	.	24d-/JJ	.	.
!!LO:LB:g=original
=73	=73	=73	=73	=73
8AA-L 8AAA-/	.	8a-L 8g- 8e- 8c/	.	.
.	.	8qGn/	.	p
8AA-J 8AAA-/	.	8A-/J	.	.
.	.	8qG/	.	.
4AA- 4AAA-/	.	4A-/	.	.
.	.	8qG/	.	.
8AA-L 8AAA-/	.	8A-/L	.	.
.	.	8qG/	.	.
8AA-J 8AAA-/	.	8A-/J	.	.
.	.	8qG/	.	.
4AA- 4AAA-/	.	4A-/	.	.
=74	=74	=74	=74	=74
*	*	*ped	*	*
!	!	!LO:TUP:a:problem=klamra łukowa	!	!
4AA- 4AAA-/	.	24ff-XLL 24dd- 24b-\	.	.
.	.	24gn\	.	<
.	.	24ff- 24dd- 24b-\	.	.
.	.	24g\	.	.
.	.	24ff- 24dd- 24b-\	.	.
.	.	24g\JJ	.	.
!	!	!LO:TUP:a:problem=klamra łukowa	!	!
4AA- 4AAA-/	.	24ff-LL 24dd- 24b-\	.	.
.	.	24g\	.	.
.	.	24ff- 24dd- 24b-\	.	.
.	.	24g\	.	.
.	.	24ff- 24dd- 24b-\	.	.
.	.	24g\JJ	.	.
!	!	!LO:TUP:a:problem=klamra łukowa	!	!
4AA- 4AAA-/	.	24ff-LL 24dd- 24b-\	.	.
.	.	24g\	.	.
.	.	24ff- 24dd- 24b-\	.	.
.	.	24g\	.	.
.	.	24ff- 24dd- 24b-\	.	.
.	.	24g\JJ	.	.
!	!	!LO:TUP:a:problem=klamra łukowa	!	!
4AA- 4AAA-/	.	24ff-LL 24dd- 24b-\	.	.
.	.	24g\	.	.
.	.	24ff- 24dd- 24b-\	.	.
.	.	24g\	.	.
.	.	24ff- 24dd- 24b-\	.	[
*	*	*Xped	*	*
.	.	24g\JJ	.	.
=75	=75	=75	=75	=75
8AA-L 8AAA-/	.	8ee-L 8cc 8a-/	.	.
.	.	8qGn/	.	p
8AA-J 8AAA-/	.	8A-/J	.	.
.	.	8qG/	.	.
4AA- 4AAA-/	.	4A-/	.	.
.	.	8qG/	.	.
8AA-L 8AAA-/	.	8A-/L	.	.
.	.	8qG/	.	.
8AA-J 8AAA-/	.	8A-/J	.	.
.	.	8qG/	.	.
4AA- 4AAA-/	.	4A-/	.	.
!!LO:LB:g=original
=76	=76	=76	=76	=76
*	*	*ped	*	*
!	!	!LO:TUP:a:problem=klamra łukowa	!	!LO:HP:b
4AA- 4AAA-/	.	24bb--LL 24gg- 24ee-\	.	<
.	.	24dd-\	.	.
.	.	24bb-- 24gg- 24ee-\	.	.
.	.	24dd-\	.	.
.	.	24bb-- 24gg- 24ee-\	.	.
.	.	24dd-\JJ	.	.
!	!	!LO:TUP:a:problem=klamra łukowa	!	!
4AA- 4AAA-/	.	24bb--LL 24gg- 24ee-\	.	.
.	.	24dd-\	.	.
.	.	24bb-- 24gg- 24ee-\	.	.
.	.	24dd-\	.	.
.	.	24bb-- 24gg- 24ee-\	.	.
.	.	24dd-\JJ	.	.
!	!	!LO:TUP:a:problem=klamra łukowa	!	!
4AA- 4AAA-/	.	24bb--LL 24gg- 24ee-\	.	.
.	.	24dd-\	.	.
.	.	24bb-- 24gg- 24ee-\	.	.
.	.	24dd-\	.	.
.	.	24bb-- 24gg- 24ee-\	.	.
.	.	24dd-\JJ	.	.
!	!	!LO:TUP:a:problem=klamra łukowa	!	!
4AA- 4AAA-/	.	24bb--LL 24gg- 24ee-\	.	.
.	.	24dd-\	.	.
.	.	24bb-- 24gg- 24ee-\	.	.
.	.	24dd-\	.	.
.	.	24bb-- 24gg- 24ee-\	.	.
*	*	*Xped	*	*
.	.	24dd-\JJ	.	[[
=77	=77	=77	=77	=77
8AA-L 8AAA-/	.	8aa-L 8gg- 8ee- 8cc/	.	.
.	.	8qGn/	.	p
8AA-J 8AAA-/	.	8A-/J	.	.
.	.	8qG/	.	.
4AA- 4AAA-/	.	4A-/	.	.
.	.	8qG/	.	.
8AA-L 8AAA-/	.	8A-/L	.	.
.	.	8qG/	.	.
8AA-J 8AAA-/	.	8A-/J	.	.
.	.	8qG/	.	.
4AA- 4AAA-/	.	4A-/	.	.
=78	=78	=78	=78	=78
*	*	*ped	*	*
*	*	*8va	*	*
!	!	!LO:TUP:a:problem=klamra łukowa	!	!
4AA- 4AAA-/	.	24fff-XLL 24ddd- 24bb-\	.	.
.	.	24ggn\	.	<
.	.	24fff- 24ddd- 24bb-\	.	.
.	.	24gg\	.	.
.	.	24fff- 24ddd- 24bb-\	.	.
.	.	24gg\JJ	.	.
!	!	!LO:TUP:a:problem=klamra łukowa	!	!
4AA- 4AAA-/	.	24fff-LL 24ddd- 24bb-\	.	.
.	.	24gg\	.	.
.	.	24fff- 24ddd- 24bb-\	.	.
.	.	24gg\	.	.
.	.	24fff- 24ddd- 24bb-\	.	.
.	.	24gg\JJ	.	.
!	!	!LO:TUP:a:problem=klamra łukowa	!	!
4AA- 4AAA-/	.	24fff-LL 24ddd- 24bb-\	.	.
.	.	24gg\	.	.
.	.	24fff- 24ddd- 24bb-\	.	.
.	.	24gg\	.	.
.	.	24fff- 24ddd- 24bb-\	.	.
.	.	24gg\JJ	.	.
!	!	!LO:TUP:a:problem=klamra łukowa	!	!
4AA- 4AAA-/	.	24fff-LL 24ddd- 24bb-\	.	.
.	.	24gg\	.	.
.	.	24fff- 24ddd- 24bb-\	.	.
.	.	24gg\	.	.
.	.	24fff- 24ddd- 24bb-\	.	.
*	*	*Xped	*	*
.	.	24gg\JJ	.	[[
!!LO:LB:g=original
=79	=79	=79	=79	=79
*	*	*ped	*	*
!	!	!	!	!LO:DY:rj
8AA-\L	.	16.eee-LL 16.ccc 16.aa-\	.	f
.	.	32aaa-JK 32ggg-X 32eee- 32ccc 32aa-\	.	.
*	*	*Xped	*	*
8A-J 8G- 8E-\	.	8aaa-J 8ggg- 8eee- 8ccc 8aa-\	.	.
*	*	*ped	*	*
8AA-\L	.	16.r	.	.
.	.	32aaanKKL 32ggg-X 32eee- 32aan\	.	.
*	*	*Xped	*	*
8AnJ 8G-X 8E-\	.	8aaaJ 8ggg- 8eee- 8aa\	.	.
*	*	*ped	*	*
8AA-\L	.	16.r	.	.
.	.	32bbb-KKL 32ggg- 32eee- 32bb-\	.	.
*	*	*Xped	*	*
8B-J 8G- 8E-\	.	8bbb-J 8ggg- 8eee- 8bb-\	.	.
*	*	*ped	*	*
8AA-\L	.	16.r	.	.
.	.	32bbbnKKL 32ggg- 32eee- 32bbn\	.	.
*	*	*Xped	*	*
8BnJ 8G- 8E-\	.	8bbbJ 8ggg- 8eee- 8bb\	.	.
=80	=80	=80	=80	=80
*	*	*ped	*	*
!	!	!	!	!LO:HP:t=crescendo.
8AA-\L	.	16.r	.	<
.	.	32ccccKKL 32ggg- 32eee- 32ccc\	.	.
*	*	*Xped	*	*
8cJ 8G- 8E-\	.	8ccccJ 8ggg- 8eee- 8ccc\	.	.
*	*	*ped	*	*
8AA-\L	.	16.r	.	.
.	.	32dddd-KKL 32ggg- 32ddd-\	.	.
*	*	*Xped	*	*
8d-J 8G- 8E-\	.	8dddd-J 8ggg- 8ddd-\	.	.
*	*	*ped	*	*
8AA-\L	.	16.r	.	.
.	.	32ddddnKKL 32ggg- 32dddn\	.	.
*	*	*Xped	*	*
8dnJ 8G- 8E-\	.	8ddddJ 8ggg- 8ddd\	.	.
*	*	*ped	*	*
8AA-\L	.	16.r	.	.
.	.	32eeee-KKL 32cccc 32ggg- 32eee-\	.	.
8e-J 8c 8G- 8E-\	.	8eeee-J 8cccc 8ggg- 8eee-\	.	.
=81	=81	=81	=81	=81
4A- 4E- 4C 4AA-\	.	4gggg- 4eeee- 4cccc 4ggg-\	.	.
*	*	*X8va	*	*
4r	.	8r	.	.
.	.	16a-/LL	3	.
.	.	16a-/JJ	2	.
2r	.	4a-/	1	.
.	.	8r	.	.
.	.	16a-/LL	.	.
.	.	16a-/JJ	.	.
!!LO:LB:g=original
=82	=82	=82	=82	=82
1r	.	4a-/	.	.
.	.	8r	.	.
*	*	*Xped	*	*
.	.	16a-/LL	.	.
.	.	16a-/JJ	.	.
*	*	*ped	*	*
.	.	4a-/	.	.
!	!	!LO:TUP:b:problem=klamra łukowa	!	!
.	.	24a-/LL	3	.
.	.	24dd-/	5	.
.	.	24a-/	3	.
!	!	!LO:TUP:b:problem=klamra łukowa	!	!
.	.	24f/	2	.
.	.	24d-/	1	.
.	.	24f/JJ	.	.
=83	=83	=83	=83	=83
1r	.	4a-/	.	.
.	.	8r	.	.
*	*	*clefF4	*	*
.	.	16A-\LL	.	p
.	.	16A-\JJ	.	.
.	.	4A-\	.	.
.	.	8r	.	.
.	.	16A-\LL	.	.
.	.	16A-\JJ	.	.
=84	=84	=84	=84	=84
1r	.	4A-\	.	.
.	.	8r	.	.
.	.	16A-\LL	.	.
.	.	16A-\JJ	.	.
.	.	4A-\	.	.
!	!	!LO:TUP:a:problem=klamra łukowa	!	!
.	.	24A-\LL	.	.
.	.	24d-\	.	.
.	.	24A-\	.	.
!	!	!LO:TUP:a:problem=klamra łukowa	!	!
.	.	24F\	.	.
.	.	24D-\	.	.
.	.	24F\JJ	.	.
=85	=85	=85	=85	=85
2r	.	4A-\	.	.
.	.	8r	.	.
.	.	16A-\LL	.	pp
.	.	16A-\JJ	.	.
4AA- 4AAA-/	.	4A-\	.	.
4r	.	8r	.	.
.	.	16A-\LL	.	.
.	.	16A-\JJ	.	.
=86	=86	=86	=86	=86
4AA- 4AAA-/	.	4A-\	.	.
4r	.	8r	.	.
.	.	16A-\LL	.	.
.	.	16A-\JJ	.	.
4AA- 4AAA-/	.	8A-\L	.	.
.	.	8A-\J	.	.
4AA- 4AAA-/	.	8r	.	.
.	.	8A-\	.	.
=87	=87	=87	=87	=87
1r;	.	1r;	.	.
!!LO:LB:g=original
=88|!	=88|!	=88|!	=88|!	=88|!
!!!OMD: Marcia.
*	*	*clefG2	*	*
*M4/4	*	*M4/4	*	*
*met(c)	*	*met(c)	*	*
*	*	*ped	*	*
!	!	!	!	!LO:DY:rj:b
4D- 4DD-/	.	8a-L 8f'/	.	p
*	*	*	*below	*
.	.	16A-/L	3	.
.	.	16A-/JJ	2	.
4r	.	8A-/L	1	.
*	*	*Xped	*	*
.	.	8b-J 8g-'/	.	.
8D-\L	.	8a- 8f/	.	.
8A-\J	.	8r	.	.
8r	.	8gn 8en/	.	.
8A-\	.	8r	.	.
=89	=89	=89	=89	=89
*	*	*ped	*	*
4D- 4DD-/	.	8a-L 8f'/	.	.
.	.	16A-/L	3	.
.	.	16A-/JJ	2	.
*	*	*Xped	*	*
4r	.	8A-'/L	.	.
.	.	8b-J 8g-X/	.	.
8D-\L	.	8a- 8f'/	.	.
8A-\J	.	8r	.	.
8r	.	8ff 8dd- 8a-'\	.	.
8A-\	.	8r	.	.
=90	=90	=90	=90	=90
*	*	*ped	*	*
4AA- 4AAA-/	.	8ffL 8cc 8g-/	.	.
.	.	16A-/L	3	.
.	.	16A-/JJ	2	.
*	*	*Xped	*	*
4r	.	8A-/L	.	.
.	.	8ee-J 8cc 8g-/	.	.
8AA-\L	.	8cc 8g- 8e-'/	.	.
8A-\J	.	8r	.	.
8r	.	8a- 8e- 8c'/	.	.
8A-\	.	8r	.	.
=91	=91	=91	=91	=91
*	*	*ped	*	*
4D- 4DD-/	.	8b-L 8f 8d-/	.	.
.	.	16A-/L	.	.
.	.	16A-/JJ	.	.
*	*	*Xped	*	*
4r	.	8A-/L	.	.
.	.	8a-J 8f'/	.	.
8D-\L	.	8f 8d-'/	.	.
8A-\J	.	8r	.	.
8r	.	8g- 8e-'/	.	.
8A-\	.	8r	.	.
!!LO:PB:g=original
=92	=92	=92	=92	=92
*	*	*ped	*	*
4D- 4DD-/	.	8a-L 8f/	.	.
.	.	16A-/L	.	.
.	.	16A-/JJ	.	.
*	*	*Xped	*	*
4r	.	8A-/L	.	.
.	.	8b-J 8g-/	.	.
8D-\L	.	8a- 8f/	.	.
8A-\J	.	8r	.	.
8r	.	8gn 8en/	.	.
8A-\	.	8r	.	.
=93	=93	=93	=93	=93
*	*	*ped	*	*
4D- 4DD-/	.	8a-L 8f/	.	.
!	!	!	!	!LO:HP:b
.	.	16A-/L	.	<
.	.	16A-/JJ	.	.
*	*	*Xped	*	*
4r	.	8A-/L	.	.
.	.	8b-J 8g-X/	.	.
8D-\L	.	8a- 8f/	.	.
8A-\J	.	8r	.	.
8r	.	8ff 8dd- 8a-\	.	.
8A-\	.	8r	.	[[
=94	=94	=94	=94	=94
*	*	*ped	*	*
4E- 4EE-/	.	8ee-L 8cc 8a-/	.	.
.	.	16e-/L	.	.
.	.	16e-/JJ	.	.
*	*	*Xped	*	*
4r	.	8e-/L	.	.
.	.	8ccJ 8a-/	.	.
8E-\L	.	8cc 8gn/	.	.
8e-\J	.	8r	.	.
8r	.	8b- 8g/	.	.
8e-\	.	8r	.	.
=95	=95	=95	=95	=95
*	*	*ped	*	*
!	!	!	!	!LO:HP:b
8c 8A-\	.	8a-/L	.	<
8r	.	16a-/L	.	.
.	.	16a-/JJ	.	.
8A- 8AA-\	.	8a-/L	.	.
8r	.	16a-/L	.	.
.	.	16a-/JJ	.	.
8A- 8AA-\	.	8a-/L	.	.
8r	.	16a-/L	.	.
.	.	16a-/JJ	.	.
8A- 8AA-\	.	8a-/L	.	.
8r	.	16a-/L	.	.
*	*	*Xped	*	*
.	.	16a-/JJ	.	[[
!!LO:LB:g=original
=96	=96	=96	=96	=96
*	*	*ped	*	*
!	!	!	!	!LO:DY:rj:b
4AA- 4AAA-/	.	8ffL 8a- 8g-X\	.	p
*	*	*	*Xbelow	*
.	.	16a-\L	3	.
.	.	16a-\JJ	2	.
8c 8A- 8G-\	.	8a-\L	1	.
*	*	*Xped	*	*
8r	.	8ee-J 8a- 8g-\	.	.
8AA-\L	.	8cc 8a- 8g- 8e-/	.	.
8cJ 8A- 8G-\	.	8r	.	.
8r	.	8a- 8g- 8e-/	.	.
8c 8A- 8G-\	.	8r	.	.
=97	=97	=97	=97	=97
*	*	*ped	*	*
4D- 4DD-/	.	8b-L 8f 8d-/	.	.
*	*	*	*below	*
.	.	16a-/L	3	.
.	.	16a-/JJ	2	.
8d- 8A- 8F\	.	8a-/L	1	.
*	*	*Xped	*	*
8r	.	8a-J 8f/	.	.
8D-\L	.	8gn 8en/	.	.
8d-J 8A- 8F\	.	8r	.	.
8r	.	8a- 8f/	.	.
8d- 8A- 8F\	.	8r	.	.
=98	=98	=98	=98	=98
*	*	*ped	*	*
4AA- 4AAA-/	.	8ffL 8a- 8g-X\	.	.
.	.	16a-\L	.	.
.	.	16a-\JJ	.	.
8c 8A- 8G-\	.	8a-\L	.	.
*	*	*Xped	*	*
8r	.	8ee-J 8a- 8g-\	.	.
8AA-\L	.	8cc 8a- 8g- 8e-/	.	.
8cJ 8A- 8G-\	.	8r	.	.
8r	.	8a- 8g- 8e-/	.	.
8c 8A- 8G-\	.	8r	.	.
=99	=99	=99	=99	=99
*	*	*ped	*	*
4D- 4DD-/	.	8b-L 8f 8d-/	.	.
.	.	16a-/L	.	.
.	.	16a-/JJ	.	.
8d- 8A- 8F\	.	8a-/L	.	.
*	*	*Xped	*	*
8r	.	8a-J 8f/	.	.
8D-\L	.	8gn 8en/	.	.
8d-J 8A- 8F\	.	8r	.	.
8r	.	8a- 8f/	.	.
8d- 8A- 8F\	.	8r	.	.
!!LO:LB:g=original
=100	=100	=100	=100	=100
*	*	*ped	*	*
4BB- 4BBB-/	.	8ffL 8a- 8f/	.	.
.	.	16b-/L	3	.
.	.	16b-/JJ	2	.
!	!	!	!	!LO:HP:b
8dn 8B- 8A-\	.	8b-/L	1	<
*	*	*Xped	*	*
8r	.	8b-J 8a-/	.	.
8BB-\L	.	8cc-X 8a-/	.	.
8dJ 8B- 8A-\	.	8r	.	.
8r	.	8b- 8a-/	.	.
8d 8B- 8A-\	.	8r	.	[[
=101	=101	=101	=101	=101
*	*	*ped	*	*
8E-L 8EE-\	.	4aa- 4ddn 4cc-X^^\	.	.
8dnJ 8c-X\	.	.	.	.
8E-\L	.	4gg- 4ee- 4b-^^\	.	.
*	*	*Xped	*	*
8e-J 8B-\	.	.	.	.
8F\L	.	4ff 4cc-X 4a-^^\	.	.
8dnJ 8c-X 8A-\	.	.	.	.
8G-\L	.	4ee- 4b- 4g-^^\	.	.
8e-J 8B-\	.	.	.	.
=102	=102	=102	=102	=102
8A-\L	.	4dd- 4a- 4f^^/	.	.
8d-\J	.	.	.	.
8A-\L	.	4ddn 4a- 4f^^/	.	.
8dnJ 8Bn\	.	.	.	.
*	*	*ped	*	*
8AA-\L	.	4ff 4a- 4g-^^\	.	.
8cJ 8A-\	.	.	.	.
8AA-\L	.	4ee- 4a- 4g-^^\	.	.
8cJ 8A-\	.	.	.	.
*	*	*Xped	*	*
=103	=103	=103	=103	=103
*	*	*ped	*	*
8d- 8D-\	.	8dd-L 8a- 8f\	.	.
*	*	*	*Xbelow	*
8r	.	16aa-\L	3	.
.	.	16aa-\JJ	2	f
8a- 8A-\	.	8aa-\L	1	.
8r	.	16aa-\L	3	.
.	.	16aa-\JJ	2	.
8a- 8A-\	.	8aa-\L	1	.
8r	.	16aa-\L	.	.
.	.	16aa-\JJ	.	.
8a- 8A-\	.	8aa-\L	.	.
8r	.	16aa-\L	.	.
*	*	*Xped	*	*
.	.	16aa-\JJ	.	.
!!LO:LB:g=original
=104	=104	=104	=104	=104
*	*	*ped	*	*
8AA-\L	.	8fffL 8ff\	.	.
8cJ 8A- 8G-\	.	16aa-\L	.	.
.	.	16aa-\JJ	.	.
8c 8A- 8G-\	.	8aa-\L	.	.
8r	.	8eee-J 8ee-\	.	.
8AA-\L	.	8ccc 8cc\	.	.
8c 8A- 8G-\	.	8r	.	.
8AA-\	.	8aa- 8a-\	.	.
*	*	*Xped	*	*
8cJ 8A- 8G-\	.	8r	.	.
=105	=105	=105	=105	=105
*	*	*ped	*	*
8D-\L	.	8bb-L 8b-\	.	.
8d-J 8A- 8F\	.	16aa-\L	.	.
.	.	16aa-\JJ	.	.
8d- 8A- 8F\	.	8aa-\L	.	.
8r	.	8aa-J 8a-\	.	.
8D-\L	.	8ggn 8gn\	.	.
8d- 8A- 8F\	.	8r	.	.
8D-\	.	8aa- 8a-\	.	.
*	*	*Xped	*	*
8d-J 8A- 8F\	.	8r	.	.
=106	=106	=106	=106	=106
*	*	*ped	*	*
8AA-\L	.	8fffL 8ff\	.	.
8cJ 8A- 8G-\	.	16aa-\L	.	.
.	.	16aa-\JJ	.	.
8c 8A- 8G-\	.	8aa-\L	.	.
8r	.	8eee-J 8ee-\	.	.
8AA-\L	.	8ccc 8cc\	.	.
8c 8A- 8G-\	.	8r	.	.
8AA-\	.	8aa- 8a-\	.	.
*	*	*Xped	*	*
8cJ 8A- 8G-\	.	8r	.	.
=107	=107	=107	=107	=107
*	*	*ped	*	*
8D-\L	.	8bb-L 8b-\	.	.
8d-J 8A- 8F\	.	16aa-\L	.	.
.	.	16aa-\JJ	.	.
8d- 8A- 8F\	.	8aa-\L	.	.
8r	.	8aa-J 8a-\	.	.
8D-\L	.	8ggn 8gn\	.	.
8d- 8A- 8F\	.	8r	.	.
8C-X\	.	8aa- 8a-\	.	.
*	*	*Xped	*	*
8d-J 8A- 8F\	.	8r	.	.
!!LO:LB:g=original
=108	=108	=108	=108	=108
*	*	*ped	*	*
8BB-\L	.	8fffL 8ff\	.	.
8dnJ 8B- 8A-\	.	16bb-\L	.	.
.	.	16bb-\JJ	.	.
!	!	!	!	!LO:HP:b
8d 8B- 8A-\	.	8bb-\L	.	<
8r	.	8bb-J 8b-\	.	.
8BB-\L	.	8ccc-X 8cc-X\	.	.
8d 8B- 8A-\	.	8r	.	.
8BB-\	.	8bb- 8b-\	.	.
*	*	*Xped	*	*
8dJ 8B- 8A-\	.	8r	.	[[
=109	=109	=109	=109	=109
*	*	*ped	*	*
8E-L 8EE-\	.	4aaa- 4ccc-X 4aa-^^\	.	.
8dnJ 8c-X 8A-\	.	.	.	.
8E-\L	.	4ggg- 4bb- 4gg-^^\	.	.
*	*	*Xped	*	*
8e-J 8B- 8G-\	.	.	.	.
8F\L	.	4fff 4aa- 4ff^^\	.	.
8dnJ 8c-X 8A-\	.	.	.	.
8G-\L	.	4eee- 4gg- 4ee-^^\	.	.
8e-J 8B-\	.	.	.	.
=110	=110	=110	=110	=110
*	*	*ped	*	*
8A-L 8AA-\	.	4ddd- 4ff 4dd-^^\	.	.
8fJ 8d-\	.	.	.	.
*	*	*Xped	*	*
8A-\L	.	4dddn 4ff 4ddn^^\	.	.
8fJ 8dn 8Bn\	.	.	.	.
*	*	*ped	*	*
8A-\L	.	4fff 4aa- 4ff^^\	.	.
8g-J 8c\	.	.	.	.
*	*	*Xped	*	*
8AA-\L	.	4eee- 4gg- 4ee-^^\	.	.
8cJ 8A- 8G-\	.	.	.	.
=111	=111	=111	=111	=111
*	*	*ped	*	*
8d- 8A- 8F 8D-\	.	8ddd-L 8ff 8dd-\	.	.
8r	.	16dd-\L	3	.
.	.	16dd-\JJ	2	.
8d-\	.	8dd-\L	1	.
8r	.	16dd-\L	3	.
.	.	16dd-\JJ	2	.
8d-\	.	8dd-\L	1	.
8r	.	16dd-\L	.	.
.	.	16dd-\JJ	.	.
8d-\	.	8dd-\L	.	.
8r	.	16dd-\L	.	.
.	.	16dd-\JJ	.	.
=112	=112	=112	=112	=112
!	!	!	!	!LO:HP:b
8D-\	.	8dd-/L	.	<
*	*	*	*below	*
8r	.	8d-/	2	.
4r	.	8d-/	3	.
.	.	8d-/J	2	.
2r	.	8d-/L	3	.
.	.	8d-/	2	.
.	.	8d-/	3	.
*	*	*Xped	*	*
.	.	8d-/J	2	[[
!!LO:PB:g=original
=113||	=113||	=113||	=113||	=113||
!!!OMD: TRIO.
*k[b-e-a-d-g-c-]	*	*k[b-e-a-d-g-c-]	*	*
*M4/4	*	*M4/4	*	*
*met(c)	*	*met(c)	*	*
*	*	*^	*	*
*	*	*ped	*	*	*
!	!	!LO:TX:a:i:t=il canto marcato.	!	!	!
4GG-/	.	(<8d-/L	4d-\	.	f
.	.	8dd-J 8b- 8g-/	.	.	.
4B- 4G-\	.	8cn/L	8.c\L	.	.
*	*	*Xped	*	*	*
.	.	8dd-J 8b- 8g-/	.	.	.
.	.	.	16d-\Jk	.	.
*	*	*ped	*	*	*
4GG-/	.	8e-/L	4e-\	.	.
.	.	8ee-J 8cc-X 8g-/	.	.	.
4B- 4G-\	.	8d-/L	4d-\	.	.
*	*	*Xped	*	*	*
.	.	8dd-J 8b- 8g-/)	.	.	.
=114	=114	=114	=114	=114	=114
*	*	*ped	*	*	*
4GG-/	.	(<8B-/L	4B-\	.	.
.	.	8b-J 8g- 8d-/	.	.	.
4G- 4D-\	.	8An/L	8.A\L	.	.
*	*	*Xped	*	*	*
.	.	8b-J 8g- 8d-/	.	.	.
.	.	.	16B-\Jk	.	.
*	*	*ped	*	*	*
4GG-/	.	8c-X/L	4c-\	.	.
.	.	8cc-J 8g- 8e-/	.	.	.
4G- 4D-\	.	8B-/L	4B-\	.	.
*	*	*Xped	*	*	*
.	.	8b-J 8g- 8d-/)	.	.	.
=115	=115	=115	=115	=115	=115
*	*	*ped	*	*	*
4DD-/	.	(<8A-/L	4A-\	.	.
.	.	8a-J 8f 8d-/	.	.	.
4En 4D-X\	.	8Gn/L	4G\	.	.
*	*	*Xped	*	*	*
.	.	8gnJ 8en 8d-/	.	.	.
*	*	*ped	*	*	*
4DD-/	.	8A-/L	4A-\	.	.
.	.	8a-J 8f 8d-/	.	.	.
4Gn 4En 4D-\	.	8B-/L	4B-\	.	.
*	*	*Xped	*	*	*
.	.	8b-J 8gn 8en/)	.	.	.
=116	=116	=116	=116	=116	=116
*	*	*ped	*	*	*
4DD-/	.	(<8c-/L	4c-\	.	.
.	.	8cc-J 8a- 8f/	.	.	.
4B-- 4G- 4D-\	.	8cn/L	4c\	.	.
.	.	8ccnJ 8b-- 8g-/	.	.	.
*	*	*ped	*	*	*
4DD-/	.	8e-/L	4e-\	.	.
.	.	8ee-J 8b-- 8g-/	.	.	.
4c-X 4A- 4F 4D-\	.	8d-/L	4d-\	.	.
.	.	8dd-J 8a- 8f/)	.	.	.
*	*	*Xped	*	*	*
!!LO:LB:g=original
=117	=117	=117	=117	=117	=117
*	*	*ped	*	*	*
4G- 4GG-\	.	(<8d-/L	4d-\	.	.
.	.	8dd-J 8b- 8g-/	.	.	.
4B- 4G- 4D-\	.	8cn/L	8.c\L	.	.
*	*	*Xped	*	*	*
.	.	8dd-J 8b- 8g-/	.	.	.
.	.	.	16d-\Jk	.	.
*	*	*ped	*	*	*
4G- 4GG-\	.	8e-/L	4e-\	.	.
.	.	8ee-J 8b- 8g-/	.	.	.
4B- 4G- 4D-\	.	8en/L	4e\	.	.
*	*	*Xped	*	*	*
.	.	8eenJ 8b- 8g-/)	.	.	.
=118	=118	=118	=118	=118	=118
*ped	*	*	*	*	*
4F 4FF/	.	(<8f/L	4f\	.	<
.	.	8ffJ 8cc- 8an/	.	.	.
*Xped	*	*	*	*	*
4c- 4An 4F\	.	8en/L	8.e\L	.	.
.	.	8ffJ 8ee-X 8cc-/	.	.	.
.	.	.	16f\Jk	.	.
*ped	*	*	*	*	*
4B- 4BB-\	.	8g-/L	4g-\	.	.
.	.	8gg-J 8dd- 8b-/	.	.	.
*Xped	*	*	*	*	*
4f-X 4d- 4B-\	.	8gn/L	4g\	.	.
.	.	8ggnJ 8dd- 8b-/)	.	.	.
=119	=119	=119	=119	=119	=119
*ped	*	*	*	*	*
4A- 4AA-\	.	8b-/L	(4b-\	.	.
.	.	8bb-J 8ff 8dd-/	.	.	.
*Xped	*	*	*	*	*
4f 4d- 4A-\	.	8a-/L	8.a-\L	.	.
.	.	8aa-J 8ff 8dd-/	.	.	.
.	.	.	16f\Jk)	.	.
*ped	*	*	*	*	*
4A- 4AA-\	.	8f/L	(4f\	.	.
.	.	8ffJ 8dd- 8b-/	.	.	.
4d- 4Gn 4E-\	.	8e-/L	8.e-\L	.	.
*Xped	*	*	*	*	*
.	.	8ee-J 8b- 8gn/	.	.	.
.	.	.	16B-\Jk)	.	.
=120	=120	=120	=120	=120	=120
*	*	*ped	*	*	*
4AA- 4AAA-/	.	8cn/L	(4c\	.	.
.	.	8ccnJ 8a- 8g-/	.	.	.
4cn 4A- 4G-\	.	8f/L	8.f\L	.	.
*	*	*Xped	*	*	*
.	.	8ffJ 8cc 8a-/	.	.	.
.	.	.	16e-\Jk	.	.
*	*	*ped	*	*	*
4D- 4DD-/	.	8d-/L	4d-\)	.	.
.	.	8dd-J 8a- 8f/	.	.	.
4c-X 4A- 4F 4D-\	.	4ddd- 4aa- 4ff 4dd-\	4ryy	.	fz
*	*	*Xped	*	*	*
!!LO:LB:g=original
=121	=121	=121	=121	=121	=121
*	*	*ped	*	*	*
4G- 4GG-\	.	(4ddd-/	8ddd-L 8dd-\	.	.
.	.	.	8bb-J 8gg-\	.	.
4B- 4G- 4D-\	.	8.cccnL 8.ccn/	8cc\L	.	.
.	.	.	8bb-J 8gg-\	.	.
.	.	16ddd-Jk 16dd-/	.	.	.
4G- 4GG-/	.	4eee- 4ee-/	8ee-\L	.	.
.	.	.	8ccc-XJ 8gg-\	.	.
4B- 4G- 4D-\	.	4ddd- 4dd-/	8dd-\L	.	.
.	.	.	8bb-J 8gg-\)	.	.
=122	=122	=122	=122	=122	=122
4G- 4GG-/	.	(4bb-/	8bb-L 8b-\	.	.
.	.	.	8gg-J 8dd-\	.	.
4B- 4G- 4D-\	.	8.aanL 8.an/	8a\L	.	.
.	.	.	8gg-J 8dd-\	.	.
.	.	16bb-Jk 16b-/	.	.	.
4G- 4GG-/	.	4ccc-X/	8ccc-L 8cc-X\	.	.
.	.	.	8gg-J 8ee-\	.	.
4B- 4G- 4D-\	.	4bb-/	8bb-L 8b-\	.	.
*	*	*	*Xped	*	*
.	.	.	8gg-J 8dd-\)	.	.
=123	=123	=123	=123	=123	=123
*	*	*	*ped	*	*
4D- 4DD-/	.	(4aa- 4a-/	8a-\L	.	.
.	.	.	8ffJ 8dd-\	.	.
4Gn 4En 4D-X\	.	4ggn 4gn/	8g\L	.	.
.	.	.	8eenJ 8dd-X\	.	.
4D- 4DD-/	.	4aa- 4a-/	8a-\L	.	.
.	.	.	8ffJ 8dd-\	.	.
4B- 4Gn 4En 4D-\	.	4bb- 4b-/	8b-\L	.	.
*	*	*	*Xped	*	*
.	.	.	8ggnJ 8een\)	.	.
=124	=124	=124	=124	=124	=124
*	*	*	*ped	*	*
4D- 4DD-/	.	(4ccc-/	8cc-\L	.	.
.	.	.	8aa-J 8ff\	.	.
4B-- 4G- 4D-\	.	4cccn/	8ccn\L	.	.
*	*	*	*Xped	*	*
.	.	.	8bb--J 8gg-\	.	.
*	*	*	*ped	*	*
4D- 4DD-/	.	4eee-/	8ee-\L	.	.
.	.	.	8bb--J 8gg-\	.	.
4c- 4A- 4F 4D-\	.	4ddd-/	8dd-\L	.	.
*	*	*	*Xped	*	*
.	.	.	8ccc-XJ 8aa- 8ff\)	.	.
!!LO:LB:g=original
=125	=125	=125	=125	=125	=125
*	*	*ped	*	*	*
4G- 4GG-/	.	(4ddd-/	8dd-\L	.	.
.	.	.	8bb-J 8gg-\	.	.
4B- 4G- 4D-\	.	8.cccnL 8.ccn/	8cc\L	.	.
.	.	.	8bb-J 8gg-\	.	.
.	.	16ddd-Jk 16dd-/	.	.	.
4G- 4GG-/	.	4eee-/	8ee-\L	.	.
.	.	.	8bb-J 8gg-\	.	.
4en 4B- 4G-\	.	4eeen/	8een\L	.	.
*	*	*Xped	*	*	*
.	.	.	8bb-J 8gg-\)	.	.
=126	=126	=126	=126	=126	=126
*	*	*ped	*	*	*
4F 4FF/	.	(4fff/	8ff\L	.	.
.	.	.	8ccc-J 8aan\	.	.
4f 4c- 4An 4F\	.	8.eeenL 8.een/	8ee\L	.	.
*	*	*Xped	*	*	*
.	.	.	8eee-XJ 8ccc-\	.	.
.	.	16fffJk 16ff/	.	.	.
*	*	*ped	*	*	*
4B- 4BB-\	.	4ggg-/	8gg-\L	.	.
.	.	.	8ddd-J 8bb-\	.	.
4f-X 4d- 4B-\	.	4gggn/	8ggn\L	.	.
*	*	*Xped	*	*	*
.	.	.	8ddd-J 8bb-\)	.	.
=127	=127	=127	=127	=127	=127
*	*	*ped	*	*	*
*	*	*8va	*	*	*
4A- 4AA-\	.	(4bbb-/	8bb-\L	.	.
.	.	.	8fffJ 8ddd-\	.	.
4f 4d- 4A-\	.	8.aaa-L 8.aa-/	8aa-\L	.	.
*	*	*Xped	*	*	*
.	.	.	8fffJ 8ddd-\	.	.
.	.	16fffJk 16ff/	.	.	.
*	*	*X8va	*	*	*
*	*	*ped	*	*	*
4A- 4AA-\	.	4fff/	8ff\L	.	.
.	.	.	8ddd-J 8bb-\	.	.
4d- 4Gn 4E-\	.	8.eee-L 8.ee-/	8ee-\L	.	.
.	.	.	8bb-J 8ggn\	.	.
*	*	*Xped	*	*	*
.	.	16bb-Jk 16b-/)	.	.	.
=128	=128	=128	=128	=128	=128
*	*	*ped	*	*	*
4AA- 4AAA-/	.	(4cccn/	8ccn\L	.	.
.	.	.	8aa-J 8gg- 8ee-\	.	.
4cn 4A- 4G-\	.	8.fffL 8.ff/	8ff\L	.	.
.	.	.	8cccJ 8aa-\	.	.
*	*	*Xped	*	*	*
.	.	16eee-Jk 16ee-/)	.	.	.
*	*	*ped	*	*	*
!LO:TUP:a:problem=klamra łukowa	!	!	!	!	!
24D-\LL	.	4ddd-/	8dd-\L	.	.
24F\	.	.	.	.	.
24A-\J	.	.	.	.	.
*	*	*	*8va	*	*
8d-\J	.	.	(>24ddd-\L	.	.
.	.	.	24fff\	.	.
.	.	.	24aaa-\JJ	.	.
8D- 8DD-/	.	8ryy	8dddd-\)	.	.
*	*	*	*X8va	*	*
8r	.	8r	8ryy	.	.
*clefG2	*	*Xped	*	*	*
*	*	*v	*v	*	*
!!LO:LB:g=original
=129!|:	=129!|:	=129!|:	=129!|:	=129!|:
*>D	*	*>D	*	*
*	*	*ped	*	*
!	!	!	!	!LO:DY:b
4cc-X 4f 4d-'/	.	4aa- 4dd-'\	.	pp
8cc-L 8f 8d-'/	.	8ggnL 8dd-'\	.	.
16r	.	16r	.	.
16cc-Jk 16f 16d-'/	.	16aa-Jk 16dd-'\	.	.
8cc- 8f 8d-'/	.	8bb- 8dd-'\	.	.
8r	.	8r	.	.
8cc- 8f 8d-'/	.	8aa- 8dd-'\	.	.
8r	.	8r	.	.
*	*	*Xped	*	*
*clefF4	*	*clefF4	*	*
=130	=130	=130	=130	=130
8D-L 8DD-'/	.	16r	.	f <
.	.	16e--LL 16E--\	.	.
8Cn 8CCn'/	.	16r	.	.
.	.	16e-- 16E--\	.	.
8D- 8DD-'/	.	16r	.	.
.	.	16e-- 16E--\	.	.
8CJ 8CC'/	.	16r	.	.
.	.	16e--JJ 16E--\	.	.
8D-L 8DD-'/	.	16r	.	.
.	.	16e--LL 16E--\	.	.
8CJ 8CC'/	.	16r	.	.
.	.	16e--JJ 16E--\	.	.
8D- 8DD-/	.	4r	.	[
8r	.	.	.	.
=131	=131	=131	=131	=131
*clefG2	*	*clefG2	*	*
*	*	*ped	*	*
!	!	!	!	!LO:DY:b
4dd- 4a- 4d-'/	.	4ccc-X 4ff'\	.	pp
8dd-L 8a- 8d-'/	.	8bb-L 8ff'\	.	.
16r	.	16r	.	.
16dd-Jk 16a- 16d-'/	.	16ccc-Jk 16ff'\	.	.
8dd- 8a- 8d-'/	.	8ddd- 8ff'\	.	.
8r	.	8r	.	.
8dd- 8a- 8d-'/	.	8ccc- 8ff'\	.	.
8r	.	8r	.	.
*	*	*Xped	*	*
*clefF4	*	*clefF4	*	*
!!LO:LB:g=original
=132	=132	=132	=132	=132
8D-L 8DD-'/	.	16r	.	f <
.	.	16e--LL 16E--\	.	.
8Cn 8CCn'/	.	16r	.	.
.	.	16e-- 16E--\	.	.
8D- 8DD-'/	.	16r	.	.
.	.	16e-- 16E--\	.	.
8CJ 8CC'/	.	16r	.	.
.	.	16e--JJ 16E--\	.	.
8D-L 8DD-'/	.	16r	.	.
.	.	16e--LL 16E--\	.	.
8CJ 8CC'/	.	16r	.	.
.	.	16e--JJ 16E--\	.	.
8D- 8DD-/	.	4r	.	[
8r	.	.	.	.
*	*	*clefG2	*	*
=133	=133	=133	=133	=133
*ped	*	*8va	*	*
4d- 4A- 4D-\	.	4fff 4ff\	.	.
*Xped	*	*	*	*
8.B--L 8.D-\	.	8.ggg-L 8.gg-\	.	.
!LO:N:n=1:acc=n-	!	!	!	!
16B-XJk 16D-\	.	16gggnJk 16ggn\	.	.
*Xtuplet	*	*	*	*
12c-XL 12D-\	.	12aaa-L 12aa-\	.	.
12d- 12D-\	.	12ddd- 12dd-\	.	.
12cnJ 12Cn\	.	12cccnJ 12ccn\	.	.
8d- 8D-\	.	8ddd- 8dd-/	.	.
8r	.	8r	.	.
=134	=134	=134	=134	=134
*ped	*	*	*	*
4d- 4F 4D-\	.	4aaa- 4aa-\	.	.
*Xped	*	*	*	*
8.G-L 8.D-\	.	8.bbb--L 8.bb--\	.	.
!	!	!LO:N:acc=n-	!	!
16GnJk 16D-\	.	16bbb-XJk 16bb-X\	.	.
12A-L 12D-\	.	12cccc-XL 12ccc-X\	.	.
12d- 12D-\	.	12ddd- 12dd-\	.	.
12cnJ 12Cn\	.	12cccnJ 12ccn\	.	.
8d- 8D-\	.	8ddd- 8dd-/	.	.
*	*	*X8va	*	*
8r	.	8r	.	.
!!LO:PB:g=original
=135	=135	=135	=135	=135
*	*	*ped	*	*
!	!	!	!	!LO:DY:rj
2.c-X 2.A- 2.F 2.D-\	.	12aaa-\L	.	ff
.	.	12gggn\	.	.
.	.	12ggg-X\J	.	.
.	.	12fff\L	.	.
.	.	12fff-X\	.	.
.	.	12eee-\J	.	.
.	.	12eee--\L	.	.
.	.	12ddd-\	.	.
.	.	12cccn\J	.	.
4r	.	12ccc-X\L	.	.
.	.	12bb-\	.	.
.	.	12bb--\J	.	.
=136	=136	=136	=136	=136
12a-\L	.	12aa-\L	.	>
12gn\	.	12ggn\	.	.
12g-X\J	.	12gg-X\J	.	.
12f\L	.	12ff\L	.	.
12f-X\	.	12ff-X\	.	.
*	*	*Xped	*	*
12e-\J	.	12ee-\J	.	.
*	*	*	*Xbelow	*
12e--\L	.	12ee--\L	1	.
12d-\	.	12dd-\	3	.
12d-\J	.	12dd-\J	2	.
8d-\	.	12dd-\L	3	.
.	.	12dd-\	2	.
8r	.	.	.	.
.	.	12dd-\J	1	]]
=137	=137	=137	=137	=137
*	*	*^	*	*
*	*	*ped	*	*	*
!	!	!	!	!	!LO:DY:b
4G- 4GG-\	.	4dd-/	16dd-\LL	.	p
.	.	.	(>16gg-\	.	.
.	.	.	16bb-\	.	.
.	.	.	16ddd-\JJ)	.	.
4B- 4G- 4D-\	.	8.ccn/L	16cc\LL	.	.
.	.	.	(>16gg-\	.	.
.	.	.	16bb-\	.	.
.	.	16ddd-/Jk	16ddd-JJ 16dd-\)	.	.
4G- 4GG-\	.	(4ee-/	16ee-\LL	.	.
.	.	.	16gg-\	.	.
.	.	.	16ccc-X\	.	.
.	.	.	16eee-\JJ)	.	.
4B- 4G- 4D-\	.	(4dd-/	16dd-\LL	.	.
.	.	.	16gg-\	.	.
.	.	.	16bb-\	.	.
.	.	.	16ddd-\JJ)	.	.
!!LO:LB:g=original
=138	=138	=138	=138	=138	=138
4G- 4GG-\	.	4b-/	16b-\LL	.	p
.	.	.	(>16dd-\	.	.
.	.	.	16ff\	.	.
.	.	.	16bb-\JJ)	.	.
4B- 4G- 4D-\	.	(8.an/L	16a\LL	.	.
.	.	.	16dd-\	.	.
.	.	.	16gg-\	.	.
.	.	16bb-/Jk)	16bb-JJ 16b-\	.	.
4G- 4GG-/	.	(4cc-X/	16cc-\LL	.	.
.	.	.	16ee-\	.	.
.	.	.	16gg-\	.	.
.	.	.	16ccc-\JJ)	.	.
4B- 4G- 4D-\	.	(4b-/	16b-\LL	.	.
.	.	.	16dd-\	.	.
.	.	.	16gg-\	.	.
*	*	*	*Xped	*	*
.	.	.	16bb-\JJ)	.	.
=139	=139	=139	=139	=139	=139
*	*	*ped	*	*	*
4D- 4DD-/	.	(4a-/	16a-\LL	.	.
.	.	.	16dd-\	.	.
.	.	.	16ff\	.	.
.	.	.	16aa-\JJ)	.	.
*	*	*Xped	*	*	*
4Gn 4En 4D-\	.	(4gn/	16g\LL	.	.
.	.	.	16dd-\	.	.
.	.	.	16een\	.	.
.	.	.	16ggn\JJ)	.	.
*	*	*ped	*	*	*
4D- 4DD-/	.	(4a-/	16a-\LL	.	.
.	.	.	16dd-\	.	.
.	.	.	16ff\	.	.
.	.	.	16aa-\JJ)	.	.
4B- 4Gn 4En 4D-\	.	(4b-/	16b-\LL	.	.
*	*	*	*Xped	*	*
.	.	.	16een\	.	.
.	.	.	16ggn\	.	.
.	.	.	16bb-\JJ)	.	.
=140	=140	=140	=140	=140	=140
*	*	*ped	*	*	*
4D- 4DD-/	.	(4cc-/	16cc-\LL	.	.
.	.	.	16ff\	.	.
.	.	.	16aa-\	.	.
.	.	.	16ccc-\JJ)	.	.
4B-- 4G- 4D-\	.	(4ccn/	16cc\LL	.	.
*	*	*	*Xped	*	*
.	.	.	16gg-X\	.	.
.	.	.	16bb--\	.	.
.	.	.	16cccn\JJ)	.	.
*	*	*ped	*	*	*
4D- 4DD-/	.	(4ee-/	16ee-\LL	.	.
.	.	.	16gg-\	.	.
.	.	.	16bb--\	.	.
.	.	.	16eee-\JJ)	.	.
4c-X 4A- 4F 4D-\	.	(4dd-/	16dd-\LL	.	.
.	.	.	16ff\	.	.
.	.	.	16aa-\	.	.
*	*	*	*Xped	*	*
.	.	.	16ddd-\JJ)	.	.
!!LO:LB:g=original
=141	=141	=141	=141	=141	=141
*	*	*	*ped	*	*
!	!	!	!	!	!LO:DY:rj
4G- 4GG-/	.	4dd-/	16dd-\LL	.	f
.	.	.	(>16gg-\	.	.
.	.	.	16bb-\	.	.
.	.	.	16ddd-\JJ)	.	.
4B- 4G- 4D-\	.	(8.ccn/L	16cc\LL	.	.
.	.	.	16gg-\	.	.
.	.	.	16bb-\	.	.
.	.	16ddd-/Jk)	16ddd-JJ 16dd-\	.	.
4G- 4GG-/	.	(4ee-/	16ee-\LL	.	.
.	.	.	16gg-\	.	.
.	.	.	16ccc-X\	.	.
.	.	.	16eee-\JJ)	.	.
4B- 4G- 4D-\	.	(4dd-/	16dd-\LL	.	.
.	.	.	16gg-\	.	.
.	.	.	16bb-\	.	.
.	.	.	16ddd-\JJ)	.	.
=142	=142	=142	=142	=142	=142
4G- 4GG-/	.	(4b-/	16b-\LL	.	.
.	.	.	16dd-\	.	.
.	.	.	16gg-\	.	.
.	.	.	16bb-\JJ)	.	.
4B- 4G- 4D-\	.	(8.an/L	16a\LL	.	.
.	.	.	16dd-\	.	.
.	.	.	16gg-\	.	.
.	.	16bb-/Jk)	16bb-JJ 16b-\	.	.
4G- 4GG-/	.	(4cc-X/	16cc-\LL	.	.
.	.	.	16ee-\	.	.
.	.	.	16gg-\	.	.
.	.	.	16ccc-\JJ)	.	.
4B- 4G- 4D-\	.	(4b-/	16b-\LL	.	.
.	.	.	16dd-\	.	.
.	.	.	16gg-\	.	.
*	*	*	*Xped	*	*
.	.	.	16bb-\JJ)	.	.
=143	=143	=143	=143	=143	=143
*	*	*ped	*	*	*
4A- 4AA-\	.	(4a-/	16a-\LL	.	.
.	.	.	16ccn\	.	.
.	.	.	16gg-\	.	.
.	.	.	16aa-\JJ)	.	.
4g- 4e- 4A-\	.	(4b-/	16b-\LL	.	.
.	.	.	16ee-\	.	.
.	.	.	16gg-\	.	.
*	*	*	*Xped	*	*
.	.	.	16bb-\JJ)	.	.
*	*	*ped	*	*	*
4A- 4AA-\	.	(4cc-X/	16cc-\LL	.	.
.	.	.	16ee-\	.	.
.	.	.	16gg-\	.	.
.	.	.	16ccc-X\JJ)	.	.
4g- 4e- 4A-\	.	(4ccn/	16cc\LL	.	.
.	.	.	16ee-\	.	.
.	.	.	16gg-\	.	.
*	*	*	*Xped	*	*
.	.	.	16cccn\JJ)	.	.
*	*	*v	*v	*	*
!!LO:LB:g=original
=144	=144	=144	=144	=144
*	*	*ped	*	*
8fL 8d-\	.	8ddd-L 8dd-\	.	.
8d- 8D-\	.	(16dd-\L	.	.
*	*	*Xped	*	*
.	.	16ddd-\JJ)	.	.
8e- 8E-\	.	(16ee-\LL	.	.
.	.	16eee-\)	.	.
8fJ 8F\	.	(16ff\	.	.
.	.	16fff\JJ)	.	.
*tuplet	*	*ped	*	*
!LO:TUP:a:problem=klamra łukowa	!	!	!	!
24G-\LL	.	8ggg-L 8gg-\	.	.
24B-\	.	.	.	.
24d-\J	.	.	.	.
*	*	*tuplet	*	*
*	*	*8va	*	*
!	!	!LO:TUP:a:problem=klamra łukowa	!	!
8g-\J	.	24ggg-\L	.	.
.	.	24bbb-\	.	.
.	.	24dddd-\JJ	.	.
8G- 8GG-/	.	8gggg-\	.	.
*	*	*Xped	*	*
*	*	*X8va	*	*
8r	.	8r	.	.
=145:|!	=145:|!	=145:|!	=145:|!	=145:|!
!!!OMD: FINALE.
*>E	*	*>E	*	*
*k[b-e-a-d-g-]	*	*k[b-e-a-d-g-]	*	*
*M4/4	*	*M4/4	*	*
*met(c)	*	*met(c)	*	*
!	!	!	!	!LO:DY:rj
4D- 4DD-/	.	8a-L 8f'/	.	p
.	.	16A-/L	.	.
.	.	16A-/JJ	.	.
*	*	*Xped	*	*
4r	.	8A-/L	.	.
.	.	8b-J 8g-'/	.	.
8D-'\L	.	8a- 8f'/	.	.
8A-'\J	.	8r	.	.
8r	.	8gn 8en'/	.	.
8A-'\	.	8r	.	.
=146	=146	=146	=146	=146
*	*	*ped	*	*
4D- 4DD-/	.	8a-L 8f'/	.	.
*	*	*	*below	*
.	.	16A-/L	3	.
.	.	16A-/JJ	2	.
4r	.	8A-/L	1	.
*	*	*Xped	*	*
.	.	8b-J 8g-X'/	.	.
8D-'\L	.	8a- 8f'/	.	.
8A-'\J	.	8r	.	.
8r	.	8ff 8dd- 8a-'\	.	.
8A-\	.	8r	.	.
!!LO:LB:g=original
=147	=147	=147	=147	=147
*	*	*ped	*	*
4AA- 4AAA-/	.	8ffL 8cc 8g-'/	.	.
.	.	16A-/L	3	.
.	.	16A-/JJ	2	.
4r	.	8A-/L	1	.
*	*	*Xped	*	*
.	.	8ee-J 8cc 8g-'/	.	.
8AA-'\L	.	8cc 8g- 8e-'/	.	.
8A-'\J	.	8r	.	.
8r	.	8a- 8e- 8c'/	.	.
8A-\	.	8r	.	.
=148	=148	=148	=148	=148
*	*	*ped	*	*
4D- 4DD-/	.	8b-L 8f 8d-'/	.	.
.	.	16A-/L	.	.
.	.	16A-/JJ	.	.
*	*	*Xped	*	*
4r	.	8A-/L	.	.
.	.	8a-J 8f'/	.	.
8D-\L	.	8f 8d-'/	.	.
8A-\J	.	8r	.	.
8r	.	8g- 8e-'/	.	.
8A-\	.	8r	.	.
=149	=149	=149	=149	=149
*	*	*ped	*	*
4D- 4DD-/	.	8a-L 8f/	.	.
.	.	16A-/L	.	.
.	.	16A-/JJ	.	.
*	*	*Xped	*	*
4r	.	8A-/L	.	.
.	.	8b-J 8g-/	.	.
8D-\L	.	8a- 8f/	.	.
8A-\J	.	8r	.	.
8r	.	8gn 8en/	.	.
8A-\	.	8r	.	.
=150	=150	=150	=150	=150
*	*	*ped	*	*
4D- 4DD-/	.	8a-L 8f/	.	.
!	!	!	!	!LO:HP:b
.	.	16A-/L	.	<
.	.	16A-/JJ	.	.
4r	.	8A-/L	.	.
*	*	*Xped	*	*
.	.	8b-J 8g-X/	.	.
8D-\L	.	8a- 8f/	.	.
8A-\J	.	8r	.	.
8r	.	8ff 8dd- 8a-\	.	.
8A-\	.	8r	.	[[
!!LO:LB:g=original
=151	=151	=151	=151	=151
*	*	*ped	*	*
4E- 4EE-/	.	8ee-L 8cc 8a-/	.	.
.	.	16e-/L	.	.
.	.	16e-/JJ	.	.
4r	.	8e-/L	.	.
*	*	*Xped	*	*
.	.	8ccJ 8a-/	.	.
8E-\L	.	8cc 8gn/	.	.
8e-\J	.	8r	.	.
8r	.	8b- 8g/	.	.
8e-\	.	8r	.	.
=152	=152	=152	=152	=152
*	*	*ped	*	*
8c 8A-\	.	8a-/L	.	.
!	!	!	!	!LO:HP:b
8r	.	16a-/L	.	<
.	.	16a-/JJ	.	.
8A- 8AA-\	.	8a-/L	.	.
8r	.	16a-/L	.	.
.	.	16a-/JJ	.	.
8A- 8AA-\	.	8a-/L	.	.
8r	.	16a-/L	.	.
.	.	16a-/JJ	.	.
8A- 8AA-\	.	8a-/L	.	.
8r	.	16a-/L	.	.
*	*	*Xped	*	*
.	.	16a-/JJ	.	[
=153	=153	=153	=153	=153
*	*	*ped	*	*
!	!	!	!	!LO:DY:rj:b
4AA- 4AAA-/	.	8ffL 8a- 8g-X\	.	p
*	*	*	*Xbelow	*
.	.	16a-\L	3	.
.	.	16a-\JJ	2	.
8c 8A- 8G-\	.	8a-\L	1	.
*	*	*Xped	*	*
8r	.	8ee-J 8a- 8g-\	.	.
8AA-\L	.	8cc 8a- 8g- 8e-/	.	.
8cJ 8A- 8G-\	.	8r	.	.
8r	.	8a- 8g- 8e-/	.	.
8c 8A- 8G-\	.	8r	.	.
=154	=154	=154	=154	=154
*	*	*ped	*	*
4D- 4DD-/	.	8b-L 8f 8d-/	.	.
*	*	*	*below	*
.	.	16a-/L	3	.
.	.	16a-/JJ	2	.
8d- 8A- 8F\	.	8a-/L	1	.
*	*	*Xped	*	*
8r	.	8a-J 8f/	.	.
8D-\L	.	8gn 8en/	.	.
8d-J 8A- 8F\	.	8r	.	.
8r	.	8a- 8f/	.	.
8d- 8A- 8F\	.	8r	.	.
!!LO:PB:g=original
=155	=155	=155	=155	=155
*	*	*ped	*	*
4AA- 4AAA-/	.	8ffL 8a- 8g-X\	.	.
.	.	16a-\L	.	.
.	.	16a-\JJ	.	.
8c 8A- 8G-\	.	8a-\L	.	.
*	*	*Xped	*	*
8r	.	8ffJ 8a- 8g-\	.	.
8AA-\L	.	8ee- 8a- 8g- 8e-/	.	.
8cJ 8A- 8G-\	.	8r	.	.
8r	.	8a- 8g- 8e-/	.	.
8c 8A- 8G-\	.	8r	.	.
=156	=156	=156	=156	=156
*	*	*ped	*	*
4D- 4DD-/	.	8b-L 8f 8d-/	.	.
.	.	16a-/L	.	.
.	.	16a-/JJ	.	.
8d- 8A- 8F\	.	8a-/L	.	.
*	*	*Xped	*	*
8r	.	8a-J 8f/	.	.
8D-\L	.	8gn 8en/	.	.
8d-J 8A- 8F\	.	8r	.	.
8r	.	8a- 8f/	.	.
8d- 8A- 8F\	.	8r	.	.
=157	=157	=157	=157	=157
*	*	*ped	*	*
4BB- 4BBB-/	.	8ffL 8a- 8f\	.	.
*	*	*	*Xbelow	*
.	.	16b-\L	3	.
.	.	16b-\JJ	2	.
!	!	!	!	!LO:HP:b
8dn 8B- 8A-\	.	8b-\L	1	<
*	*	*Xped	*	*
8r	.	8b-J 8a-\	.	.
8BB-\L	.	8cc-X 8a-/	.	.
8dJ 8B- 8A-\	.	8r	.	.
8r	.	8b- 8a-/	.	.
8d 8B- 8A-\	.	8r	.	[[
=158	=158	=158	=158	=158
*	*	*ped	*	*
8E-L 8EE-\	.	4aa- 4ddn 4cc-X^^\	.	.
8dnJ 8c-X\	.	.	.	.
8E-\L	.	4gg- 4ee- 4b-^^\	.	.
8e-J 8B-\	.	.	.	.
*	*	*Xped	*	*
8F\L	.	4ff 4cc-X 4a-^^\	.	.
8dnJ 8c-X 8A-\	.	.	.	.
8G-\L	.	4ee- 4b- 4g-^^\	.	.
8e-J 8B-\	.	.	.	.
!!LO:LB:g=original
=159	=159	=159	=159	=159
8A-\L	.	4dd- 4a- 4f^^\	.	.
8d-\J	.	.	.	.
8A-\L	.	4ddn 4a- 4f^^\	.	.
8dnJ 8Bn\	.	.	.	.
*	*	*ped	*	*
8AA-\L	.	4ff 4a- 4g-^^\	.	.
8cJ 8A-\	.	.	.	.
8AA-\L	.	4ee- 4a- 4g-^^\	.	.
*	*	*Xped	*	*
8cJ 8A-\	.	.	.	.
=160	=160	=160	=160	=160
*	*	*ped	*	*
8d- 8D-\	.	8dd-L 8a- 8f\	.	.
!	!	!	!	!LO:DY:b
8r	.	16aa-\L	3	f
.	.	16aa-\JJ	2	.
8a- 8A-\	.	8aa-\L	1	.
8r	.	16aa-\L	3	.
.	.	16aa-\JJ	2	.
8a- 8A-\	.	8aa-\L	1	.
8r	.	16aa-\L	.	.
.	.	16aa-\JJ	.	.
8a- 8A-\	.	8aa-\L	.	.
8r	.	16aa-\L	.	.
*	*	*Xped	*	*
.	.	16aa-\JJ	.	.
=161	=161	=161	=161	=161
*	*	*ped	*	*
8AA-\L	.	8fffL 8ff\	.	.
8cJ 8A- 8G-\	.	16aa-\L	.	.
.	.	16aa-\JJ	.	.
8c 8A- 8G-\	.	8aa-\L	.	.
8r	.	8eee-J 8ee-\	.	.
8AA-\L	.	8ccc 8cc\	.	.
8c 8A- 8G-\	.	8r	.	.
8GG-\	.	8aa- 8a-\	.	.
*	*	*Xped	*	*
8cJ 8A- 8G-\	.	8r	.	.
=162	=162	=162	=162	=162
*	*	*ped	*	*
8D-\L	.	8bb-L 8b-\	.	.
8d-J 8A- 8F\	.	16aa-\L	.	.
.	.	16aa-\JJ	.	.
8d- 8A- 8F\	.	8aa-\L	.	.
8r	.	8aa-J 8a-\	.	.
8D-\L	.	8ggn 8gn\	.	.
8d- 8A- 8F\	.	8r	.	.
8D-\	.	8aa- 8a-\	.	.
*	*	*Xped	*	*
8d-J 8A- 8F\	.	8r	.	.
!!LO:LB:g=original
=163	=163	=163	=163	=163
*	*	*ped	*	*
8AA-\L	.	8fffL 8ff\	.	.
8cJ 8A- 8G-\	.	16aa-\L	.	.
.	.	16aa-\JJ	.	.
8c 8A- 8G-\	.	8aa-\L	.	.
8r	.	8eee-J 8ee-\	.	.
8AA-\L	.	8ccc 8cc\	.	.
8c 8A- 8G-\	.	8r	.	.
8AA-\	.	8aa- 8a-\	.	.
*	*	*Xped	*	*
8cJ 8A- 8G-\	.	8r	.	.
=164	=164	=164	=164	=164
*	*	*ped	*	*
8D-\L	.	8bb-L 8b-\	.	.
8d-J 8A- 8F\	.	16aa-\L	.	.
.	.	16aa-\JJ	.	.
8d- 8A- 8F\	.	8aa-\L	.	.
8r	.	8aa-J 8a-\	.	.
8D-\L	.	8ggn 8gn\	.	.
8d- 8A- 8F\	.	8r	.	.
8C-X\	.	8aa- 8a-\	.	.
*	*	*Xped	*	*
8d-J 8A- 8F\	.	8r	.	.
=165	=165	=165	=165	=165
*	*	*ped	*	*
8BB-\L	.	8fffL 8ff\	.	.
8dnJ 8B- 8A-\	.	16bb-\L	.	.
.	.	16bb-\JJ	.	.
!	!	!	!	!LO:HP:b
8d 8B- 8A-\	.	8bb-\L	.	<
8r	.	8bb-J 8b-\	.	.
8BB-\L	.	8ccc-X 8cc-X\	.	.
8d 8B- 8A-\	.	8r	.	.
8BB-\	.	8bb- 8b-\	.	.
*	*	*Xped	*	*
8dJ 8B- 8A-\	.	8r	.	[[
=166	=166	=166	=166	=166
*	*	*ped	*	*
8E-L 8EE-\	.	4aaa- 4ccc-X 4aa-^^\	.	.
8dnJ 8c-X 8A-\	.	.	.	.
8E-\L	.	4ggg- 4bb- 4gg-^^\	.	.
8e-J 8B- 8G-\	.	.	.	.
*	*	*Xped	*	*
8F\L	.	4fff 4aa- 4ff^^\	.	.
8dnJ 8c-X 8A-\	.	.	.	.
8G-\L	.	4eee- 4gg- 4ee-^^\	.	.
8e-J 8B-\	.	.	.	.
!!LO:LB:g=original
=167	=167	=167	=167	=167
*	*	*ped	*	*
!	!	!	!	!LO:DY:rj
8AA-\L	.	(16ffLL 16dd-\	.	pp
.	.	16ddd-\	.	.
8A-\	.	16dd-\	.	.
.	.	16ddd-\JJ	.	.
8dn 8Bn\	.	16ddn\LL	.	.
.	.	16dddn\	.	.
*	*	*Xped	*	*
8A-\J	.	16dd\	.	.
.	.	16ddd\JJ	.	.
*	*	*ped	*	*
8e-L 8c\	.	16ee-\LL	.	.
.	.	16eee-\	.	.
8A-\	.	16ee-\	.	.
.	.	16eee-\JJ	.	.
8dn 8Bn\	.	16ddn\LL	.	.
.	.	16dddn\	.	.
8A-\J	.	16dd\	.	.
*	*	*Xped	*	*
.	.	16ddd\JJ)	.	.
=168	=168	=168	=168	=168
*	*	*ped	*	*
!	!	!LO:TX:b:Bi:t=cres_cen_do:problem:dynamics with extension lines	!	!LO:HP:b:t=cres_cen_do
8AA-\L	.	(16ee-\LL	.	<
.	.	16eee-\	.	.
8A-\	.	16ee-\	.	.
.	.	16eee-\JJ	.	.
8en 8c\	.	16een\LL	.	.
.	.	16eeen\	.	.
8A-\J	.	16ee\	.	.
*	*	*Xped	*	*
.	.	16eee\JJ	.	.
*	*	*ped	*	*
8fL 8d-\	.	16ff\LL	.	.
.	.	16fff\	.	.
8A-\	.	16ff\	.	.
.	.	16fff\JJ	.	.
8en 8c\	.	16een\LL	.	.
*	*	*Xped	*	*
.	.	16eeen\	.	.
8A-\J	.	16ee\	.	.
.	.	16eee\JJ)	.	.
=169	=169	=169	=169	=169
*	*	*ped	*	*
8AA-\L	.	(16ff\LL	.	.
.	.	16fff\	.	.
8A-\	.	16ff\	.	.
.	.	16fff\JJ	.	.
8f 8dn 8Bn\	.	16ff\LL	.	.
.	.	16fff\	.	.
*	*	*Xped	*	*
8A-\J	.	16ff\	.	.
.	.	16fff\JJ	.	.
8g-L 8e- 8c\	.	16gg-\LL	.	.
*	*	*ped	*	*
.	.	16ggg-\	.	.
8A-\	.	16gg-\	.	.
.	.	16ggg-\JJ	.	.
8f 8dn 8Bn\	.	16ff\LL	.	.
*	*	*Xped	*	*
.	.	16fff\	.	.
8A-\J	.	16ff\	.	.
.	.	16fff\JJ)	.	.
!!LO:LB:g=original
=170	=170	=170	=170	=170
*	*	*ped	*	*
8AA-\L	.	(16gg-\LL	.	.
.	.	16ggg-\	.	.
8A-\	.	16gg-\	.	.
.	.	16ggg-\JJ	.	.
8f-X 8d-\	.	16ggn\LL	.	.
.	.	16gggn\	.	.
*	*	*Xped	*	*
8A-\J	.	16gg\	.	.
.	.	16ggg\JJ	.	.
*	*	*ped	*	*
8e-L 8c\	.	16aa-\LL	.	.
.	.	16aaa-\	.	.
8A-\	.	16aa-\	.	.
.	.	16aaa-\JJ	.	.
*	*	*Xped	*	*
8f-X 8d-\	.	16ggn\LL	.	.
.	.	16gggn\	.	.
8A-\J	.	16gg\	.	.
.	.	16ggg\JJ	.	[[
=171	=171	=171	=171	=171
*	*	*ped	*	*
!	!	!	!	!LO:DY:b
8e-L 8c 8A-\	.	8aaa-L 8aa-\)	.	f
*clefG2	*	*	*	*
8gg-X 8g-X\	.	16r	.	.
*	*	*8va	*	*
.	.	8aaa- 8eee- 8ccc 8aa-\	.	.
8ff 8f\	.	.	.	.
.	.	8aaa- 8eee- 8ccc 8aa-\	.	.
8ee-J 8e-\	.	.	.	.
.	.	8aaa- 8eee- 8ccc 8aa-\Jk	.	.
8dd-L 8d-/	.	.	.	.
.	.	8aaa- 8eee- 8ccc 8aa-\L	.	.
8cc 8c/	.	.	.	.
.	.	8aaa- 8eee- 8ccc 8aa-\	.	.
8b- 8B-/	.	.	.	.
.	.	8aaa- 8eee- 8ccc 8aa-\	.	.
8a-J 8A-/	.	.	.	.
.	.	16aaa-Jk 16eee- 16ccc 16aa-\	.	.
*clefF4	*	*	*	*
=172	=172	=172	=172	=172
8g-L 8G-\	.	16r	.	.
.	.	8aaa-L 8eee- 8ccc 8aa-\	.	.
8f 8F\	.	.	.	.
.	.	8aaa- 8eee- 8ccc 8aa-\	.	.
8e- 8E-\	.	.	.	.
.	.	8aaa- 8eee- 8ccc 8aa-\	.	.
8d-J 8D-\	.	.	.	.
.	.	8aaa- 8eee- 8ccc 8aa-\Jk	.	.
8cL 8C\	.	.	.	.
.	.	8aaa- 8eee- 8ccc 8aa-\L	.	.
8B- 8BB-\	.	.	.	.
.	.	8aaa- 8eee- 8ccc 8aa-\	.	.
8A- 8AA-\	.	.	.	.
.	.	8aaa- 8eee- 8ccc 8aa-\	.	.
8GnJ 8GGn\	.	.	.	.
.	.	16aaa-Jk 16eee- 16ccc 16aa-\	.	.
!!LO:LB:g=original
=173	=173	=173	=173	=173
8G-XL 8GG-X/	.	16r	.	.
.	.	8aaa-L 8eee- 8ccc 8aa-\	.	.
8F 8FF/	.	.	.	.
.	.	8aaa- 8eee- 8ccc 8aa-\	.	.
8E- 8EE-/	.	.	.	.
.	.	8aaa- 8eee- 8ccc 8aa-\	.	.
8D-J 8DD-/	.	.	.	.
.	.	8aaa- 8eee- 8ccc 8aa-\Jk	.	.
8CL 8CC/	.	.	.	.
.	.	8aaa- 8eee- 8ccc 8aa-\L	.	.
8C-X 8CC-X/	.	.	.	.
.	.	8aaa- 8eee- 8ccc 8aa-\	.	.
8BB- 8BBB-/	.	.	.	.
.	.	8aaa- 8eee- 8ccc 8aa-\	.	.
8BB--J 8BBB--/	.	.	.	.
.	.	16aaa-Jk 16eee- 16ccc 16aa-\	.	.
=174	=174	=174	=174	=174
4AA- 4AAA-/	.	8aaa-L 8eee- 8ccc 8aa-\	.	ff
.	.	16aaa-L 16ggg- 16eee- 16ccc 16aa-\	.	.
.	.	16aaa-JJ 16ggg- 16eee- 16ccc 16aa-\	.	.
4A- 4AA-/	.	8aaa-L 8ggg- 8eee- 8ccc 8aa-\	.	.
.	.	8aaa-J 8ggg- 8eee- 8ccc 8aa-\	.	.
2AA- 2AAA-/	.	8aaa-L 8ggg- 8eee- 8ccc 8aa-\	.	.
.	.	8aaa- 8ggg- 8eee- 8ccc 8aa-\	.	.
.	.	8aaa- 8ggg- 8eee- 8ccc 8aa-\	.	.
*	*	*Xped	*	*
.	.	8aaa-J 8ggg- 8eee- 8ccc 8aa-\	.	.
=175||	=175||	=175||	=175||	=175||
!!!OMD: Animato
*	*	*ped	*	*
!	!	!	!	!LO:DY:b
8D-L 8DD-\	.	8aaa-L 8fff 8ddd- 8aa-^^\	.	f
8f 8d- 8A-\	.	16aa-L 16ff 16dd-\	.	.
.	.	16a-\JJ	.	.
8fJ 8d- 8A-\	.	8aa-L 8ff 8dd-\	.	.
8r	.	8bbb-J 8bb-^^\	.	.
8D-L 8DD-\	.	8aaa-L 8aa-^^\	.	.
8f 8d- 8A-\	.	16aa-L 16ff 16dd-\	.	.
.	.	16a-\JJ	.	.
8fJ 8d- 8A-\	.	8aa-L 8ff 8dd-\	.	.
8r	.	8gggnJ 8ggn^^\	.	.
*	*	*Xped	*	*
!!LO:PB:g=original
=176	=176	=176	=176	=176
*	*	*ped	*	*
8D-L 8DD-\	.	8aaa-L 8aa-^^\	.	.
8f 8d- 8A-\	.	16aa-L 16ff 16dd-\	.	.
.	.	16a-\JJ	.	.
8fJ 8d- 8A-\	.	8aa-L 8ff 8dd-\	.	.
8r	.	8bbb-J 8bb-^^\	.	.
8D-L 8DD-\	.	8aaa-L 8aa-^^\	.	.
8f 8d- 8A-\	.	16aa-L 16ff 16dd-\	.	.
.	.	16a-\JJ	.	.
8fJ 8d- 8A-\	.	8aa-L 8ff 8dd-\	.	.
*	*	*Xped	*	*
8r	.	8dddd-J 8ddd-^^\	.	.
=177	=177	=177	=177	=177
*	*	*ped	*	*
!	!	!LO:TX:t=P:problem=mixed beam	!	!
8A-L 8AA-\	.	8ffffL 8fff^^\	.	.
8g- 8e- 8c 8A-\	.	16aa-L 16gg- 16ee-/	.	.
.	.	16cc/JJ	.	.
8g-J 8e- 8c 8A-\	.	8aa-L 8gg- 8ee-\	.	.
8r	.	8eeee-J 8eee-^^\	.	.
8A-L 8AA-\	.	8ccccL 8ccc^^/	.	.
8g- 8e- 8c 8A-\	.	16aa-L 16gg- 16ee-/	.	.
.	.	16cc/JJ	.	.
8g-J 8e- 8c 8A-\	.	8aa-L 8gg- 8ee-\	.	.
*	*	*Xped	*	*
8r	.	8aaa-J 8aa-^^\	.	.
=178	=178	=178	=178	=178
8D-L 8DD-\	.	8bbb-L 8bb-^^/	.	.
8f 8d- 8A-\	.	16aa-L 16ff 16dd-/	.	.
.	.	16a-/JJ	.	.
8fJ 8d- 8A-\	.	8aa-L 8ff 8dd-\	.	.
8r	.	8aaa-J 8aa-^^\	.	.
8D-L 8DD-\	.	8fffL 8ff^^/	.	.
8f 8d- 8A-\	.	16aa-L 16ff 16dd-/	.	.
.	.	16a-/JJ	.	.
8fJ 8d- 8A-\	.	8aa-L 8ff 8dd-\	.	.
8r	.	8gggnJ 8ggn^^\	.	.
!!LO:LB:g=original
=179	=179	=179	=179	=179
*	*	*ped	*	*
8D-L 8DD-\	.	8aaa-L 8aa-^^</	.	.
8f 8d- 8A-\	.	16aa-L 16ff 16dd-/	.	.
.	.	16a-/JJ	.	.
8fJ 8d- 8A-\	.	8aa-L 8ff 8dd-\	.	.
8r	.	8bbb-J 8bb-^^\	.	.
8D-L 8DD-\	.	8aaa-L 8aa-^^</	.	.
8f 8d- 8A-\	.	16aa-L 16ff 16dd-/	.	.
.	.	16a-/JJ	.	.
8fJ 8d- 8A-\	.	8aa-L 8ff 8dd-\	.	.
*	*	*Xped	*	*
8r	.	8gggnJ 8ggn^^\	.	.
=180	=180	=180	=180	=180
*	*	*ped	*	*
8D-L 8DD-\	.	8aaa-L 8aa-^^</	.	.
8f 8d- 8A-\	.	16aa-L 16ff 16dd-/	.	.
.	.	16a-/JJ	.	.
8fJ 8d- 8A-\	.	8aa-L 8ff 8dd-\	.	.
8r	.	8bbb-J 8bb-^^\	.	.
8D-L 8DD-\	.	8aaa-L 8aa-^^</	.	.
8f 8d- 8A-\	.	16aa-L 16ff 16dd-/	.	.
.	.	16a-/JJ	.	.
8fJ 8d- 8A-\	.	8aa-L 8ff 8dd-\	.	.
*	*	*Xped	*	*
8r	.	8ffffJ 8fff^^\	.	.
=181	=181	=181	=181	=181
*	*	*ped	*	*
8E-L 8EE-\	.	8eeee-L 8eee-^^\	.	.
8c 8A- 8E-\	.	16cccL 16aa- 16ee-\	.	.
.	.	16cc\JJ	.	.
8cJ 8A- 8E-\	.	8cccL 8aa- 8ee-\	.	.
*	*	*Xped	*	*
8r	.	8ccccJ 8ccc^^\	.	.
*	*	*ped	*	*
8E-L 8EE-\	.	8ccccL 8ccc^^\	.	.
8d- 8Gn 8E-\	.	16ggnL 16ee- 16dd-\	.	.
.	.	16b-\JJ	.	.
8d-J 8G 8E-\	.	8ggL 8ee- 8dd-\	.	.
*	*	*Xped	*	*
8r	.	8bbb-J 8bb-^^\	.	.
!!LO:LB:g=original
=182	=182	=182	=182	=182
*	*	*ped	*	*
8A-L 8AA-\	.	8aaa-L 8aa-^^</	.	.
8e- 8c 8A-\	.	16aa-L 16ee- 16cc/	.	.
.	.	16a-/JJ	.	.
8e-J 8c 8A-\	.	8aa-L 8ee- 8cc\	.	.
8r	.	8aaa-J 8aa-^^\	.	.
8A-L 8AA-\	.	8aaa-L 8aa-^^</	.	.
8e- 8c 8A-\	.	16aa-L 16ee- 16cc/	.	.
.	.	16a-/JJ	.	.
8e-J 8c 8A-\	.	8aa-L 8ee- 8cc\	.	.
*	*	*Xped	*	*
8r	.	8aaa-J 8aa-^^\	.	.
=183	=183	=183	=183	=183
*	*	*ped	*	*
8A-L 8AA-\	.	8ffffL 8fff^^\	.	.
8g- 8e- 8c 8A-\	.	16aa-L 16gg-X 16ee-\	.	.
.	.	16cc\JJ	.	.
8g-J 8e- 8c 8A-\	.	8aa-L 8gg- 8ee-\	.	.
8r	.	8eeee-J 8eee-^^\	.	.
8A-L 8AA-\	.	8ccccL 8ccc^^\	.	.
8g- 8e- 8c 8A-\	.	16aa-L 16gg- 16ee-\	.	.
.	.	16cc\JJ	.	.
8g-J 8e- 8c 8A-\	.	8aa-L 8gg- 8ee-\	.	.
*	*	*Xped	*	*
8r	.	8aaa-J 8aa-^^\	.	.
=184	=184	=184	=184	=184
*	*	*ped	*	*
8D-L 8DD-\	.	8bbb-L 8bb-^^</	.	.
8f 8d- 8A-\	.	16aa-L 16ff 16dd-/	.	.
.	.	16a-/JJ	.	.
8fJ 8d- 8A-\	.	8aa-L 8ff 8dd-/	.	.
8r	.	8aaa-J 8aa-^^</	.	.
8D-L 8DD-\	.	8gggnL 8ggn^^</	.	.
8f 8d- 8A-\	.	16aa-L 16ff 16dd-/	.	.
.	.	16a-/JJ	.	.
8fJ 8d- 8A-\	.	8aa-L 8ff 8dd-^^/	.	.
*	*	*Xped	*	*
8r	.	8aaa-J 8aa-/	.	.
!!LO:LB:g=original
=185	=185	=185	=185	=185
*	*	*ped	*	*
8A-L 8AA-\	.	8ffffL 8fff^^\	.	.
8g- 8e- 8c 8A-\	.	16aa-L 16gg-X 16ee-\	.	.
.	.	16cc\JJ	.	.
8g-J 8e- 8c 8A-\	.	8aa-L 8gg- 8ee-\	.	.
8r	.	8eeee-J 8eee-^^\	.	.
8A-L 8AA-\	.	8ccccL 8ccc^^\	.	.
8g- 8e- 8c 8A-\	.	16aa-L 16gg- 16ee-\	.	.
.	.	16cc\JJ	.	.
8g-J 8e- 8c 8A-\	.	8aa-L 8gg- 8ee-\	.	.
*	*	*Xped	*	*
8r	.	8aaa-J 8aa-^^\	.	.
=186	=186	=186	=186	=186
*	*	*ped	*	*
8D-L 8DD-\	.	8bbb-L 8bb-^^</	.	.
8f 8d- 8A-\	.	16aa-L 16ff 16dd-/	.	.
.	.	16a-/JJ	.	.
8fJ 8d- 8A-\	.	8aa-L 8ff 8dd-/	.	.
8r	.	8aaa-J 8aa-^^</	.	.
8D-L 8DD-\	.	8gggnL 8ggn^^</	.	.
8f 8d- 8A-\	.	16aa-L 16ff 16dd-/	.	.
.	.	16a-/JJ	.	.
8fJ 8d- 8A-\	.	8aa-L 8ff 8dd-/	.	.
*	*	*Xped	*	*
8r	.	8aaa-J 8aa-^^</	.	.
=187	=187	=187	=187	=187
*	*	*ped	*	*
8B-L 8BB-\	.	8ffffL 8fff^^\	.	.
8dn 8B- 8A- 8F\	.	16bb-L 16aa- 16ff\	.	.
.	.	16ddn\JJ	.	.
8dJ 8B- 8A- 8F\	.	8bb-L 8aa- 8ff\	.	.
8r	.	8bbb-J 8bb-^^\	.	.
8B-L 8BB-\	.	8cccc-XL 8ccc-X^^\	.	.
8d 8B- 8A- 8F\	.	16bb-L 16aa- 16ff\	.	.
.	.	16dd\JJ	.	.
8dJ 8B- 8A- 8F\	.	8bb-L 8aa- 8ff\	.	.
*	*	*Xped	*	*
8r	.	8bbb-J 8bb-^^\	.	.
!!LO:LB:g=original
=188	=188	=188	=188	=188
*	*	*ped	*	*
8E-L 8EE-\	.	4aaaa- 4cccc-X 4aaa-\	.	.
8dnJ 8c-X 8A-\	.	.	.	.
8E-\L	.	4gggg- 4bbb- 4ggg-\	.	.
8e-J 8B- 8G-\	.	.	.	.
*	*	*Xped	*	*
8F\L	.	4ffff 4aaa- 4fff\	.	.
8dnJ 8c-X 8A-\	.	.	.	.
8G-\L	.	4eeee- 4ggg- 4eee-\	.	.
8e-J 8B-\	.	.	.	.
=189	=189	=189	=189	=189
*	*	*ped	*	*
8A-\L	.	4dddd- 4fff 4ddd-\	.	.
8f 8d-\	.	.	.	.
*	*	*Xped	*	*
8A-\	.	4ddddn 4fff 4dddn\	.	.
8fJ 8dn 8Bn\	.	.	.	.
*	*	*ped	*	*
8A-\L	.	4ffff 4aaa- 4fff\	.	.
8g- 8e- 8c\	.	.	.	.
8AA-\	.	4eeee- 4ggg- 4eee-\	.	.
*	*	*Xped	*	*
8cJ 8A- 8G-\	.	.	.	.
=190	=190	=190	=190	=190
*	*	*ped	*	*
*	*	*Xtuplet	*	*
4D- 4DD-/	.	12dddd-L 12fff 12ddd-\	.	.
.	.	12cccc\	.	.
.	.	12cccc-X\J	.	.
4d- 4A- 4F\	.	12bbb-\L	.	.
.	.	12bbb--\	.	.
*	*	*Xped	*	*
.	.	12aaa-\J	.	.
*	*	*ped	*	*
4D-\	.	12aaa--\L	.	.
.	.	12ggg-\	.	.
.	.	12fff\J	.	.
4d- 4B-- 4G-\	.	12fff-X\L	.	.
.	.	12eee-\	.	.
*	*	*Xped	*	*
.	.	12eee--\J	.	.
*	*	*X8va	*	*
=191	=191	=191	=191	=191
*	*	*ped	*	*
4D-\	.	12ddd-\L	.	.
.	.	12ccc\	.	.
.	.	12ccc-X\J	.	.
4d- 4A- 4F\	.	12bb-\L	.	.
.	.	12bb--\	.	.
*	*	*Xped	*	*
.	.	12aa-\J	.	.
*	*	*ped	*	*
4D-\	.	12aa--\L	.	.
.	.	12gg-\	.	.
.	.	12ff\J	.	.
4d- 4B-- 4G-\	.	12ff-X\L	.	.
.	.	12ee-\	.	.
*	*	*Xped	*	*
.	.	12ee--\J	.	.
!!LO:LB:g=original
=192	=192	=192	=192	=192
*Xtuplet	*	*ped	*	*
12d-L 12A- 12F 12D-\	.	4dd-\	.	.
12c\	1	.	.	.
12c-X\J	2	.	.	.
12B-\L	.	4dd- 4a- 4f/	.	.
12B--\	.	.	.	.
*	*	*Xped	*	*
12A-\J	.	.	.	.
12A--\L	.	4ff 4dd- 4a- 4f\	.	.
12G-\	.	.	.	.
12F\J	.	.	.	.
12F-X\L	.	4aa- 4ff 4dd- 4a-\	.	.
12E-\	.	.	.	.
12E--\J	.	.	.	.
=193	=193	=193	=193	=193
12D-/L	.	4ddd- 4aa- 4ff 4dd-\	.	.
12C/	.	.	.	.
12C-X/J	.	.	.	.
*	*	*8va	*	*
12BB-/L	.	4ddd- 4aa- 4ff 4dd-/	.	.
12BB--/	.	.	.	.
12AA-/J	.	.	.	.
12AA--/L	.	4fff 4ddd- 4aa- 4ff\	.	.
12GG-/	.	.	.	.
12FF/J	.	.	.	.
12FF-X/L	.	4aaa- 4fff 4ddd- 4aa-\	.	.
12EE-/	.	.	.	.
12EE--/J	.	.	.	.
=194	=194	=194	=194	=194
*	*	*ped	*	*
4DD-/	.	4dddd- 4aaa- 4fff 4ddd-\	.	.
*	*	*X8va	*	*
4r	.	4r	.	.
4d- 4A- 4D-\	.	4ff 4dd- 4a- 4f\	.	.
4r	.	4r	.	.
=195	=195	=195	=195	=195
2.D- 2.AA- 2.DD-\	.	2.d- 2.A-< 2.F</	.	.
*	*	*Xped	*	*
4r	.	4r	.	.
==	==	==	==	==
*-	*-	*-	*-	*-
!!!system-decoration: {(*)}
!!!RDF**kern: > = above
!!!RDF**kern: < = below
!!!ENC: Filip Voros
!!!END: 2022-08-16
!!!ENC: Andrzej Kubiczek
!!!END: 2022-09-16
!!!YEC: Copyright 2022 Narodowy Instytut Fryderyka Chopina (https://polishscores.org)
!!!YEM: License CC-BY-4.0 (https://creativecommons.org/licenses/by/4.0)
